;FLAVOR:Marlin
;TIME:2509
;Filament used: 1.62131m
;Layer height: 0.2
;MINX:82.593
;MINY:91.445
;MINZ:0.24
;MAXX:136.591
;MAXY:145.691
;MAXZ:6.09
;TARGET_MACHINE.NAME:Creality Ender-3 Pro
;Generated with Cura_SteamEngine 5.7.1
M82 ;absolute extrusion mode
; Ender 3 Custom Start G-code
G92 E0 ; Reset Extruder
G28 ; Home all axes
G1 Z5.0 F3000 ; Move Z Axis up a bit during heating to not damage bed
M104 S175 ; Start heating up the nozzle most of the way
M190 S60 ; Start heating the bed, wait until target temperature reached
M109 S218.0 ; Finish heating the nozzle
G1 Z2.0 F3000 ; Move Z Axis up little to prevent scratching of Heat Bed
G1 X0.1 Y20 Z0.3 F5000.0 ; Move to start position
G1 X0.1 Y200.0 Z0.3 F1500.0 E15 ; Draw the first line
G1 X0.4 Y200.0 Z0.3 F5000.0 ; Move to side a little
G1 X0.4 Y20 Z0.3 F1500.0 E30 ; Draw the second line
G92 E0 ; Reset Extruder
G1 Z2.0 F3000 ; Move Z Axis up little to prevent scratching of Heat Bed
G1 X5 Y20 Z0.3 F5000.0 ; Move over to prevent blob squish
G92 E0
G92 E0
G1 F1500 E-6.5
;LAYER_COUNT:25
;LAYER:-6
M107
G0 F9000 X105.898 Y123.529 Z0.24
;TYPE:SUPPORT-INTERFACE
G1 F1500 E0
G1 F1125 X105.291 Y123.894 E0.05654
G1 X104.754 Y124.324 E0.11145
G1 X104.262 Y124.833 E0.16796
G1 X103.87 Y125.361 E0.22046
G1 X103.528 Y125.965 E0.27586
G1 X103.267 Y126.601 E0.33074
G1 X103.093 Y127.255 E0.38476
G1 X103 Y127.895 E0.43638
G1 X102.992 Y128.613 E0.4937
G1 X103.062 Y129.233 E0.54351
G1 X103.245 Y129.982 E0.60505
G1 X103.467 Y130.55 E0.65373
G1 X103.826 Y131.213 E0.71392
G1 X104.19 Y131.721 E0.7638
G1 X104.67 Y132.244 E0.82047
G1 X105.179 Y132.668 E0.87335
G1 X105.789 Y133.058 E0.93114
G1 X106.392 Y133.34 E0.98428
G1 X106.976 Y133.536 E1.03346
G1 X107.402 Y133.631 E1.0683
G1 X107.812 Y133.706 E1.10157
G1 X108.292 Y133.769 E1.14021
G1 X109.225 Y133.851 E1.21497
G1 X109.759 Y133.868 E1.25762
G1 X110.703 Y133.852 E1.33299
G1 X111.237 Y133.82 E1.37569
G1 X111.76 Y133.758 E1.41773
G1 X112.421 Y133.64 E1.47133
G1 X113.046 Y133.442 E1.52366
G1 X113.69 Y133.153 E1.58001
G1 X114.294 Y132.774 E1.63693
G1 X114.802 Y132.358 E1.68934
G1 X115.252 Y131.882 E1.74163
G1 X115.686 Y131.295 E1.7999
G1 X116.006 Y130.719 E1.8525
G1 X116.265 Y130.085 E1.90717
G1 X116.432 Y129.45 E1.95958
G1 X116.525 Y128.72 E2.01832
G1 X116.524 Y128.061 E2.07093
G1 X116.432 Y127.36 E2.12736
G1 X116.269 Y126.728 E2.17946
G1 X116.018 Y126.092 E2.23404
G1 X115.668 Y125.463 E2.2915
G1 X115.265 Y124.915 E2.3458
G1 X114.786 Y124.42 E2.40078
G1 X114.282 Y124.005 E2.4529
G1 X113.706 Y123.643 E2.5072
G1 X113.085 Y123.357 E2.56178
G1 X112.443 Y123.157 E2.61546
G1 X111.748 Y123.03 E2.67185
G1 X110.97 Y122.996 E2.73402
G1 X110.571 Y122.996 E2.76587
G1 X110.034 Y122.945 E2.80892
G1 X109.467 Y122.904 E2.8543
G1 X108.686 Y122.927 E2.91667
G1 X108.513 Y122.924 E2.93048
G1 X107.787 Y122.956 E2.98849
G1 X107.165 Y123.062 E3.03886
G1 X106.544 Y123.248 E3.09061
G1 X105.898 Y123.529 E3.14684
G1 F1500 E-3.35316
G0 F9000 X91.396 Y100.094
G1 F1500 E3.14684
G1 F1125 X92.917 Y98.716 E3.31067
G1 X93.394 Y98.329 E3.3597
G1 X95.064 Y97.095 E3.52545
G1 X95.395 Y96.87 E3.5574
G1 X97.32 Y95.721 E3.73636
G1 X97.751 Y95.495 E3.7752
G1 X99.669 Y94.591 E3.94446
G1 X100.107 Y94.414 E3.98217
G1 X101.944 Y93.756 E4.13793
G1 X102.445 Y93.598 E4.17986
G1 X104.63 Y93.051 E4.35966
G1 X105.095 Y92.963 E4.39744
G1 X107.032 Y92.673 E4.55378
G1 X107.66 Y92.603 E4.60422
G1 X109.692 Y92.508 E4.7666
G1 X110.152 Y92.505 E4.80332
G1 X112.336 Y92.603 E4.97783
G1 X112.964 Y92.673 E5.02827
G1 X114.908 Y92.963 E5.18517
G1 X115.369 Y93.051 E5.22263
G1 X117.559 Y93.602 E5.4029
G1 X118.056 Y93.756 E5.44443
G1 X120.022 Y94.465 E5.61126
G1 X120.448 Y94.646 E5.64821
G1 X122.245 Y95.495 E5.80685
G1 X122.775 Y95.773 E5.85463
G1 X124.609 Y96.878 E6.02554
G1 X125.025 Y97.155 E6.06544
G1 X126.909 Y98.562 E6.25314
G1 X128.6 Y100.094 E6.43528
G1 X129.01 Y100.504 E6.48156
G1 X130.365 Y101.998 E6.64257
G1 X130.653 Y102.347 E6.67868
G1 X131.937 Y104.068 E6.85008
G1 X132.21 Y104.471 E6.88894
G1 X133.368 Y106.406 E7.06895
G1 X133.653 Y106.935 E7.11691
G1 X133.644 Y106.949 E7.11824
G1 X134.473 Y108.689 E7.27209
G1 X134.682 Y109.207 E7.31668
G1 X135.387 Y111.181 E7.484
G1 X135.541 Y111.702 E7.52737
G1 X136.007 Y113.571 E7.68113
G1 X136.104 Y114.025 E7.71819
G1 X136.113 Y114.217 E7.73353
G1 X136.144 Y114.241 E7.73666
G1 X136.431 Y116.192 E7.89407
G1 X136.493 Y116.744 E7.93841
G1 X136.588 Y118.763 E8.09976
G1 X136.591 Y119.252 E8.13879
G1 X136.488 Y121.438 E8.31348
G1 X136.434 Y121.978 E8.3568
G1 X136.137 Y123.982 E8.51852
G1 X136.048 Y124.463 E8.55756
G1 X135.53 Y126.547 E8.72898
G1 X135.352 Y127.112 E8.77626
G1 X134.678 Y129.004 E8.93659
G1 X134.45 Y129.553 E8.98404
G1 X133.601 Y131.341 E9.14204
G1 X133.323 Y131.876 E9.19017
G1 X132.218 Y133.708 E9.36095
G1 X131.941 Y134.12 E9.40058
G1 X130.652 Y135.849 E9.57273
G1 X130.376 Y136.186 E9.6075
G1 X129.006 Y137.695 E9.77019
G1 X128.599 Y138.102 E9.81614
G1 X127.082 Y139.481 E9.97978
G1 X126.614 Y139.863 E10.02801
G1 X124.933 Y141.101 E10.19466
G1 X124.617 Y141.314 E10.22507
G1 X122.684 Y142.474 E10.40503
G1 X122.246 Y142.701 E10.44441
G1 X120.339 Y143.601 E10.61273
G1 X120.02 Y143.73 E10.6402
G1 X118.056 Y144.44 E10.8069
G1 X117.551 Y144.598 E10.84914
G1 X115.474 Y145.122 E11.02013
G1 X114.938 Y145.233 E11.06383
G1 X112.919 Y145.526 E11.22668
G1 X112.266 Y145.593 E11.27908
G1 X110.304 Y145.688 E11.43588
G1 X109.844 Y145.691 E11.4726
G1 X107.735 Y145.597 E11.64111
G1 X107.083 Y145.526 E11.69347
G1 X105.062 Y145.233 E11.85648
G1 X104.511 Y145.118 E11.90141
G1 X102.437 Y144.594 E12.07217
G1 X101.939 Y144.44 E12.11378
G1 X100.095 Y143.778 E12.27017
G1 X99.665 Y143.605 E12.30717
G1 X97.753 Y142.701 E12.47599
G1 X97.311 Y142.474 E12.51566
G1 X95.372 Y141.31 E12.69618
G1 X94.964 Y141.033 E12.73555
G1 X93.385 Y139.863 E12.89242
G1 X92.976 Y139.535 E12.93427
G1 X91.396 Y138.102 E13.10454
G1 X90.986 Y137.692 E13.15083
G1 X89.608 Y136.17 E13.31472
G1 X89.328 Y135.829 E13.34994
G1 X88.055 Y134.117 E13.52024
G1 X87.73 Y133.633 E13.56677
G1 X86.63 Y131.792 E13.73796
G1 X86.395 Y131.342 E13.77849
G1 X85.546 Y129.545 E13.93713
G1 X85.322 Y129.011 E13.98336
G1 X84.648 Y127.121 E14.14353
G1 X84.47 Y126.551 E14.1912
G1 X83.951 Y124.462 E14.36302
G1 X83.855 Y123.961 E14.40374
G1 X83.562 Y121.97 E14.56438
G1 X83.508 Y121.437 E14.60715
G1 X83.408 Y119.42 E14.76835
G1 X83.405 Y118.944 E14.80635
G1 X83.504 Y116.86 E14.97289
G1 X83.494 Y116.849 E14.97408
G1 X83.561 Y116.207 E15.0256
G1 X83.85 Y114.222 E15.18572
G1 X83.959 Y113.701 E15.22821
G1 X84.451 Y111.728 E15.39053
G1 X84.609 Y111.175 E15.43644
G1 X85.314 Y109.212 E15.60293
G1 X85.55 Y108.638 E15.65247
G1 X86.352 Y106.949 E15.80172
G1 X86.343 Y106.935 E15.80305
G1 X86.62 Y106.422 E15.84959
G1 X87.77 Y104.5 E16.02838
G1 X88.058 Y104.077 E16.06923
G1 X89.344 Y102.347 E16.2413
G1 X89.611 Y102.022 E16.27487
G1 X90.994 Y100.496 E16.43927
G1 X91.396 Y100.094 E16.48465
G0 F9000 X91.502 Y100.553
G1 F1125 X128.542 Y137.593 E20.66605
G1 F1500 E14.16605
G0 F9000 X127.367 Y138.681
G1 F1500 E20.66605
G1 F1125 X116.923 Y128.237 E21.84506
G1 F1500 E15.34506
G0 F9000 X116.641 Y130.217
G1 F1500 E21.84506
G1 F1125 X126.139 Y139.716 E22.91733
G1 F1500 E16.41733
G0 F9000 X124.836 Y140.675
G1 F1500 E22.91733
G1 F1125 X115.872 Y131.711 E23.92926
G1 F1500 E17.42926
G0 F9000 X114.783 Y132.884
G1 F1500 E23.92926
G1 F1125 X123.447 Y141.549 E24.90739
G1 F1500 E18.40739
G0 F9000 X122.006 Y142.371
G1 F1500 E24.90739
G1 F1125 X113.369 Y133.734 E25.8824
G1 F1500 E19.3824
G0 F9000 X111.558 Y134.186
G1 F1500 E25.8824
G1 F1125 X120.468 Y143.096 E26.88824
G1 F1500 E20.38824
G0 F9000 X118.841 Y143.731
G1 F1500 E26.88824
G1 F1125 X109.367 Y134.257 E27.95775
G1 F1500 E21.45775
G0 F9000 X106.716 Y133.869
G1 F1500 E27.95775
G1 F1125 X117.136 Y144.289 E29.13405
G1 F1500 E22.63405
G0 F9000 X115.328 Y144.743
G1 F1500 E29.13405
G1 F1125 X84.354 Y113.769 E32.63066
G1 F1500 E26.13066
G0 F9000 X84.805 Y111.958
G1 F1500 E32.63066
G1 F1125 X102.837 Y129.99 E34.66627
G1 F1500 E28.16627
G0 F9000 X102.649 Y127.539
G1 F1500 E34.66627
G1 F1125 X85.364 Y110.254 E36.61755
G1 F1500 E30.11755
G0 F9000 X85.998 Y108.626
G1 F1500 E36.61755
G1 F1125 X103.167 Y125.794 E38.55568
G1 F1500 E32.05568
G0 F9000 X104.08 Y124.444
G1 F1500 E38.55568
G1 F1125 X86.717 Y107.081 E40.51576
G1 F1500 E34.01576
G0 F9000 X87.548 Y105.65
G1 F1500 E40.51576
G1 F1125 X105.311 Y123.413 E42.521
G1 F1500 E36.021
G0 F9000 X106.888 Y122.728
G1 F1500 E42.521
G1 F1125 X88.421 Y104.26 E44.60578
G1 F1500 E38.10578
G0 F9000 X89.385 Y102.961
G1 F1500 E44.60578
G1 F1125 X108.943 Y122.519 E46.81365
G1 F1500 E40.31365
G0 F9000 X111.296 Y122.609
G1 F1500 E46.81365
G1 F1125 X90.416 Y101.729 E49.17077
G1 F1500 E42.67077
G0 F9000 X92.682 Y99.47
G1 F1500 E49.17077
G1 F1125 X129.628 Y136.416 E53.34155
G1 F1500 E46.84155
G0 F9000 X130.654 Y135.179
G1 F1500 E53.34155
G1 F1125 X93.916 Y98.441 E57.48885
G1 F1500 E50.98885
G0 F9000 X95.217 Y97.48
G1 F1500 E57.48885
G1 F1125 X131.62 Y133.883 E61.59834
G1 F1500 E55.09834
G0 F9000 X132.488 Y132.488
G1 F1500 E61.59834
G1 F1125 X96.611 Y96.611 E65.64844
G1 F1500 E59.14844
G0 F9000 X98.057 Y95.794
G1 F1500 E65.64844
G1 F1125 X133.302 Y131.039 E69.6272
G1 F1500 E63.1272
G0 F9000 X134.03 Y129.504
G1 F1500 E69.6272
G1 F1125 X99.595 Y95.069 E73.51453
G1 F1500 E67.01453
G0 F9000 X101.227 Y94.438
G1 F1500 E73.51453
G1 F1125 X134.658 Y127.87 E77.28856
G1 F1500 E70.78856
G0 F9000 X135.214 Y126.163
G1 F1500 E77.28856
G1 F1125 X102.938 Y93.888 E80.9321
G1 F1500 E74.4321
G0 F9000 X104.75 Y93.436
G1 F1500 E80.9321
G1 F1125 X135.663 Y124.349 E84.42183
G1 F1500 E77.92183
G0 F9000 X135.969 Y122.392
G1 F1500 E84.42183
G1 F1125 X106.704 Y93.127 E87.72551
G1 F1500 E81.22551
G0 F9000 X108.79 Y92.951
G1 F1500 E87.72551
G1 F1125 X136.141 Y120.302 E90.81313
G1 F1500 E84.31313
G0 F9000 X136.154 Y118.052
G1 F1500 E90.81313
G1 F1125 X111.048 Y92.946 E93.64731
G1 F1500 E87.14731
G0 F9000 X113.527 Y93.162
G1 F1500 E93.64731
G1 F1125 X135.935 Y115.57 E96.17692
G1 F1500 E89.67692
G0 F9000 X135.395 Y112.767
G1 F1500 E96.17692
G1 F1125 X116.333 Y93.706 E98.32875
G1 F1500 E91.82875
G0 F9000 X119.645 Y94.754
G1 F1500 E98.32875
G1 F1125 X134.347 Y109.457 E99.98849
G1 F1500 E93.48849
G0 F9000 X135.49 Y108.364
G0 X134.468 Y106.258
G0 X133.179 Y104.013
G0 X131.921 Y104.768
G1 F1500 E99.98849
G1 F1125 X124.331 Y97.178 E100.84532
G1 F1500 E94.34532
G0 F9000 X125.084 Y95.919
G0 X122.718 Y94.542
G0 X121.315 Y93.847
G0 X119.859 Y93.238
G0 X117.656 Y92.527
G0 X115.109 Y91.917
G0 X113.01 Y91.587
G0 X109.659 Y91.445
G0 X106.971 Y91.608
G0 X104.272 Y92.043
G0 X101.713 Y92.71
G0 X99.11 Y93.677
G0 X96.675 Y94.864
G0 X94.339 Y96.305
G0 X92.205 Y97.926
G0 X90.215 Y99.774
G0 X88.369 Y101.871
G0 X86.824 Y104.008
G0 X85.462 Y106.341
G0 X84.323 Y108.824
G0 X83.609 Y110.819
G0 X83.337 Y111.627
G0 X82.906 Y113.604
G0 X82.593 Y115.502
G0 X84.037 Y115.715
G1 F1500 E100.84532
G1 F1125 X113.377 Y145.055 E104.15747
G1 F1500 E97.65747
G0 F9000 X111.298 Y145.239
G1 F1500 E104.15747
G1 F1125 X83.859 Y117.8 E107.25502
G1 F1500 E100.75502
G0 F9000 X83.839 Y120.043
G1 F1500 E107.25502
G1 F1125 X109.051 Y145.255 E110.10117
G1 F1500 E103.60117
G0 F9000 X106.582 Y145.049
G1 F1500 E110.10117
G1 F1125 X84.046 Y122.513 E112.64523
G1 F1500 E106.14523
G0 F9000 X84.571 Y125.301
G1 F1500 E112.64523
G1 F1125 X103.795 Y144.524 E114.81534
G1 F1500 E108.31534
G0 F9000 X100.51 Y143.502
G1 F1500 E114.81534
G1 F1125 X85.595 Y128.587 E116.49908
G1 F1500 E109.99908
G0 F9000 X84.338 Y129.418
G0 X84.581 Y130.057
G0 X85.537 Y131.969
G0 X86.668 Y133.932
G0 X87.924 Y133.179
G1 F1500 E116.49908
G1 F1125 X95.915 Y141.17 E117.40117
M104 S218
G1 F1500 E110.90117
G0 F300 X95.915 Y141.17 Z0.54
G0 F9000 X103.168 Y125.792
;TIME_ELAPSED:114.721896
;LAYER:-5
;TYPE:SUPPORT
G1 F1500 E117.40117
G1 F1125 X103.554 Y125.116 E117.47884
G1 X103.978 Y124.55 E117.54941
G1 X104.474 Y124.041 E117.62032
G1 X105.034 Y123.592 E117.69194
G1 X105.676 Y123.195 E117.76726
G1 X106.091 Y123.011 E117.81256
G1 X128.522 Y100.58 E120.97781
G1 X128.721 Y100.78 E121.00596
G1 X129.203 Y101.314 E121.07774
G1 X107.967 Y122.549 E124.0743
G1 X108.494 Y122.525 E124.12694
G1 X108.692 Y122.53 E124.1467
G1 X109.423 Y122.508 E124.21967
G1 X129.876 Y102.055 E127.10581
G1 X130.082 Y102.282 E127.1364
G1 X130.333 Y102.585 E127.17566
G1 X130.515 Y102.83 E127.20611
G1 X110.832 Y122.513 E129.9836
G1 X110.988 Y122.501 E129.99921
G1 X110.988 Y122.599 E130.00899
G1 X111.784 Y122.63 E130.08847
G1 X112.076 Y122.684 E130.1181
G1 X131.119 Y103.641 E132.80528
G1 X131.722 Y104.452 E132.90611
G1 X113.202 Y122.972 E135.51949
G1 X113.91 Y123.3 E135.59734
G1 X114.141 Y123.447 E135.62466
G1 X132.259 Y105.329 E138.18131
G1 X132.79 Y106.212 E138.28412
G1 X114.956 Y124.046 E140.80069
G1 X115.114 Y124.176 E140.82111
G1 X115.661 Y124.755 E140.90058
G1 X133.289 Y107.127 E143.38808
G1 X133.744 Y108.087 E143.49409
G1 X116.214 Y125.616 E145.96769
G1 X116.387 Y125.931 E146.00355
G1 X116.649 Y126.596 E146.07487
G1 X134.188 Y109.057 E148.54981
G1 X134.306 Y109.342 E148.58059
G1 X134.572 Y110.087 E148.65952
G1 X116.892 Y127.767 E151.15436
G1 X116.925 Y128.037 E151.1815
G1 X116.925 Y128.771 E151.25474
G1 X116.868 Y129.205 E151.29842
G1 X134.92 Y111.153 E153.84575
G1 X134.985 Y111.265 E153.85867
G1 X135.067 Y112.321 E153.96435
G1 X135.259 Y112.226 E153.98573
G1 X116.092 Y131.395 E156.69054
G1 F1500 E150.19054
G0 F9000 X130.555 Y135.318
G1 F1500 E156.69054
G1 F1125 X126.198 Y139.674 E157.30529
G1 X124.787 Y140.72 E157.48055
G1 X124.406 Y140.978 E157.52646
G1 X122.488 Y142.127 E157.74955
G1 X122.161 Y142.297 E157.78633
G1 X133.196 Y131.262 E159.34348
G1 X134.063 Y129.437 E159.54509
G1 X133.98 Y129.354 E159.5568
G1 X134.265 Y128.927 E159.60802
G1 X134.279 Y128.765 E159.62425
G1 X119.681 Y143.362 E161.68411
G1 X119.357 Y143.403 E161.7167
G1 X119.357 Y143.55 E161.73137
G1 X117.787 Y144.108 E161.89762
G1 X117.409 Y144.221 E161.93699
G1 X135.125 Y126.505 E164.43691
G1 X135.417 Y125.351 E164.55568
G1 X135.254 Y125.352 E164.57195
G1 X135.516 Y124.7 E164.64206
G1 X115.499 Y144.716 E167.46661
G1 X114.816 Y144.845 E167.53596
G1 X113.808 Y144.993 E167.63762
G1 X135.895 Y122.906 E170.75433
G1 X136.041 Y121.92 E170.85379
G1 X136.106 Y121.281 E170.91788
G1 X112.191 Y145.196 E174.29254
G1 X110.704 Y145.269 E174.44109
G1 X136.169 Y119.804 E178.03448
G1 X136.19 Y119.385 E178.07634
G1 X136.194 Y118.942 E178.12055
G1 X136.168 Y118.391 E178.17559
G1 X109.293 Y145.266 E181.96794
G1 X107.942 Y145.202 E182.10289
G1 X136.037 Y117.107 E186.0674
G1 X136.086 Y116.718 E186.10652
G1 X136.038 Y116.26 E186.15247
G1 X135.965 Y115.765 E186.2024
G1 X106.667 Y145.063 E190.33666
G1 X105.435 Y144.881 E190.46093
G1 X135.675 Y114.641 E194.72812
G1 X135.723 Y114.158 E194.77655
G1 X135.655 Y113.81 E194.81193
G1 X135.542 Y113.36 E194.85822
G1 X104.26 Y144.642 E199.27245
G1 X103.13 Y144.357 E199.38873
G1 X114.152 Y133.335 E200.94406
G1 X113.867 Y133.512 E200.97753
G1 X113.196 Y133.816 E201.05104
G1 X112.502 Y134.034 E201.12362
G1 X111.941 Y134.132 E201.18044
G1 X102.028 Y144.045 E202.57928
G1 X100.987 Y143.672 E202.68961
G1 X110.383 Y134.276 E204.01549
G1 X109.887 Y134.309 E204.06509
G1 X109.887 Y134.267 E204.06928
G1 X108.999 Y134.246 E204.15791
G1 X99.942 Y143.302 E205.43588
G1 X99.542 Y143.034 E205.48392
G1 X99.471 Y143.072 E205.49196
G1 X98.986 Y142.844 E205.54543
G1 X107.732 Y134.099 E206.77952
G1 X107.338 Y134.029 E206.81945
G1 X106.893 Y133.929 E206.86496
G1 X106.59 Y133.826 E206.89689
G1 X98.026 Y142.39 E208.10536
G1 X97.505 Y142.122 E208.16382
G1 X97.114 Y141.888 E208.20929
G1 X105.594 Y133.407 E209.40598
G1 X104.928 Y132.98 E209.48492
G1 X104.754 Y132.834 E209.50758
G1 X96.229 Y141.358 E210.71048
G1 X95.593 Y140.977 E210.78446
G1 X95.356 Y140.817 E210.81299
G1 X104.03 Y132.143 E212.03699
G1 X103.875 Y131.974 E212.05987
G1 X103.429 Y131.331 E212.13795
G1 X94.539 Y140.221 E213.39242
G1 X93.727 Y139.618 E213.49334
G1 X102.972 Y130.374 E214.79784
G1 X102.861 Y130.088 E214.82845
G1 X102.664 Y129.267 E214.9127
G1 X92.954 Y138.977 E216.28288
G1 X92.212 Y138.304 E216.38284
