;FLAVOR:Marlin
;TIME:2381
;Filament used: 1.63197m
;Layer height: 0.2
;MINX:80.536
;MINY:80.346
;MINZ:0.24
;MAXX:138.591
;MAXY:139.654
;MAXZ:6.09
;TARGET_MACHINE.NAME:Creality Ender-3 Pro
;Generated with Cura_SteamEngine 5.7.1
M82 ;absolute extrusion mode
; Ender 3 Custom Start G-code
G92 E0 ; Reset Extruder
G28 ; Home all axes
G1 Z5.0 F3000 ; Move Z Axis up a bit during heating to not damage bed
M104 S175 ; Start heating up the nozzle most of the way
M190 S60 ; Start heating the bed, wait until target temperature reached
M109 S218.0 ; Finish heating the nozzle
G1 Z2.0 F3000 ; Move Z Axis up little to prevent scratching of Heat Bed
G1 X0.1 Y20 Z0.3 F5000.0 ; Move to start position
G1 X0.1 Y200.0 Z0.3 F1500.0 E15 ; Draw the first line
G1 X0.4 Y200.0 Z0.3 F5000.0 ; Move to side a little
G1 X0.4 Y20 Z0.3 F1500.0 E30 ; Draw the second line
G92 E0 ; Reset Extruder
G1 Z2.0 F3000 ; Move Z Axis up little to prevent scratching of Heat Bed
G1 X5 Y20 Z0.3 F5000.0 ; Move over to prevent blob squish
G92 E0
G92 E0
G1 F1500 E-6.5
;LAYER_COUNT:25
;LAYER:-6
M107
G0 F9000 X99.814 Y99.296 Z0.24
;TYPE:SUPPORT-INTERFACE
G1 F1500 E0
G1 F1125 X99.073 Y100.057 E0.08479
G1 X98.739 Y100.435 E0.12505
G1 X98.15 Y101.179 E0.2008
G1 X97.85 Y101.599 E0.242
G1 X97.344 Y102.378 E0.31615
G1 X97.085 Y102.828 E0.3576
G1 X96.664 Y103.644 E0.43089
G1 X96.44 Y104.128 E0.47346
G1 X96.099 Y104.998 E0.54805
G1 X95.937 Y105.465 E0.58751
G1 X95.675 Y106.382 E0.66364
G1 X95.507 Y107.106 E0.72297
G1 X95.516 Y107.117 E0.7241
G1 X95.394 Y107.788 E0.77854
G1 X95.327 Y108.291 E0.81905
G1 X95.245 Y109.241 E0.89516
G1 X95.228 Y109.784 E0.93853
G1 X95.244 Y110.684 E1.01038
G1 X95.272 Y111.18 E1.05004
G1 X95.382 Y112.142 E1.12733
G1 X95.465 Y112.642 E1.16779
G1 X95.656 Y113.536 E1.24076
G1 X95.785 Y114.017 E1.28051
G1 X96.07 Y114.921 E1.35618
G1 X96.266 Y115.435 E1.40009
G1 X96.632 Y116.283 E1.47381
G1 X96.852 Y116.733 E1.5138
G1 X97.32 Y117.578 E1.5909
G1 X97.587 Y118.01 E1.63144
G1 X98.045 Y118.682 E1.69636
G1 X98.418 Y119.171 E1.74545
G1 X99.038 Y119.903 E1.82203
G1 X99.313 Y120.204 E1.85457
G1 X100.041 Y120.908 E1.93541
G1 X100.421 Y121.247 E1.97606
G1 X101.175 Y121.846 E2.05293
G1 X101.398 Y122.006 E2.07484
G1 X101.398 Y122.019 E2.07588
G1 X102.386 Y122.656 E2.16971
G1 X102.827 Y122.911 E2.21038
G1 X103.648 Y123.336 E2.28417
G1 X104.127 Y123.553 E2.32615
G1 X104.997 Y123.897 E2.40083
G1 X105.465 Y124.059 E2.44036
G1 X106.382 Y124.321 E2.51649
G1 X106.866 Y124.438 E2.55624
G1 X107.805 Y124.606 E2.63238
G1 X108.294 Y124.673 E2.67178
G1 X109.222 Y124.751 E2.74612
G1 X109.755 Y124.768 E2.78869
G1 X110.688 Y124.752 E2.86317
G1 X111.225 Y124.72 E2.90612
G1 X112.139 Y124.614 E2.97956
G1 X112.661 Y124.528 E3.02179
G1 X113.566 Y124.333 E3.09569
G1 X114.048 Y124.203 E3.13554
G1 X114.961 Y123.914 E3.21199
G1 X115.438 Y123.735 E3.25266
G1 X116.475 Y123.288 E3.3428
G1 X117.555 Y122.69 E3.44134
G1 X118.004 Y122.414 E3.48341
G1 X118.7 Y121.934 E3.5509
G1 X119.179 Y121.57 E3.59892
G1 X119.915 Y120.946 E3.67595
G1 X120.269 Y120.617 E3.71452
G1 X120.944 Y119.918 E3.79209
G1 X121.273 Y119.544 E3.83185
G1 X121.846 Y118.821 E3.90549
G1 X122.195 Y118.327 E3.95377
G1 X122.656 Y117.618 E4.02128
G1 X122.968 Y117.065 E4.07196
G1 X123.34 Y116.339 E4.13708
G1 X123.549 Y115.882 E4.1772
G1 X123.897 Y115.004 E4.25259
G1 X124.066 Y114.516 E4.29381
G1 X124.39 Y113.37 E4.38887
G1 X124.602 Y112.204 E4.48348
G1 X124.669 Y111.705 E4.52367
G1 X124.751 Y110.751 E4.6001
G1 X124.768 Y110.225 E4.64211
G1 X124.756 Y109.306 E4.71547
G1 X124.719 Y108.787 E4.75701
G1 X124.614 Y107.866 E4.831
G1 X124.531 Y107.352 E4.87256
G1 X124.331 Y106.423 E4.94842
G1 X124.199 Y105.928 E4.98931
G1 X123.921 Y105.065 E5.06169
G1 X123.739 Y104.579 E5.10311
G1 X123.364 Y103.705 E5.17903
G1 X123.138 Y103.253 E5.21937
G1 X122.695 Y102.447 E5.29278
G1 X122.413 Y101.989 E5.33572
G1 X121.893 Y101.239 E5.40857
G1 X121.573 Y100.824 E5.4504
G1 X120.944 Y100.077 E5.52835
G1 X120.62 Y99.733 E5.56607
G1 X119.943 Y99.076 E5.64138
G1 X119.57 Y98.745 E5.68119
G1 X118.829 Y98.158 E5.75665
G1 X118.398 Y97.847 E5.79907
G1 X117.625 Y97.347 E5.87256
G1 X117.173 Y97.085 E5.91426
G1 X116.335 Y96.655 E5.98945
G1 X115.893 Y96.455 E6.02818
G1 X115.008 Y96.104 E6.10417
G1 X114.541 Y95.945 E6.14355
G1 X113.615 Y95.679 E6.22046
G1 X113.123 Y95.559 E6.26088
G1 X112.2 Y95.39 E6.33579
G1 X111.697 Y95.323 E6.37629
G1 X110.749 Y95.245 E6.45222
G1 X110.25 Y95.228 E6.49208
G1 X109.297 Y95.244 E6.56816
G1 X108.759 Y95.276 E6.61118
G1 X107.857 Y95.382 E6.68368
G1 X107.361 Y95.465 E6.72382
G1 X106.448 Y95.66 E6.79835
G1 X105.929 Y95.797 E6.84119
G1 X105.056 Y96.079 E6.91443
G1 X104.582 Y96.257 E6.95484
G1 X103.706 Y96.632 E7.03091
G1 X103.12 Y96.914 E7.08282
G1 X103.109 Y96.936 E7.08478
G1 X102.434 Y97.31 E7.14638
G1 X101.995 Y97.585 E7.18773
G1 X101.229 Y98.11 E7.26186
G1 X100.816 Y98.426 E7.30337
G1 X100.1 Y99.035 E7.3784
G1 X99.814 Y99.296 E7.40931
G1 F1500 E0.90931
G0 F9000 X89.984 Y89.578
G1 F1500 E7.40931
G1 F1125 X91.696 Y88.029 E7.59361
G1 X92.105 Y87.701 E7.63546
G1 X93.86 Y86.395 E7.81008
G1 X94.259 Y86.126 E7.84849
G1 X96.252 Y84.927 E8.03415
G1 X96.694 Y84.685 E8.07438
G1 X99.07 Y83.563 E8.28412
G1 X101.484 Y82.701 E8.48874
G1 X102.025 Y82.543 E8.53373
G1 X104.243 Y81.987 E8.71625
G1 X104.596 Y81.919 E8.74495
G1 X106.885 Y81.578 E8.92968
G1 X107.537 Y81.516 E8.98196
G1 X109.692 Y81.408 E9.1542
G1 X110.152 Y81.405 E9.19092
G1 X112.461 Y81.508 E9.37542
G1 X113.113 Y81.577 E9.42776
G1 X115.404 Y81.919 E9.61266
G1 X115.752 Y81.987 E9.64096
G1 X118.162 Y82.594 E9.83935
G1 X118.507 Y82.697 E9.86809
G1 X120.966 Y83.578 E10.07659
G1 X123.295 Y84.686 E10.28247
G1 X123.742 Y84.924 E10.3229
G1 X125.723 Y86.117 E10.50749
G1 X126.136 Y86.399 E10.54741
G1 X127.895 Y87.701 E10.7221
G1 X128.299 Y88.028 E10.76359
G1 X130.008 Y89.575 E10.9476
G1 X130.426 Y89.989 E10.99456
G1 X131.963 Y91.692 E11.17768
G1 X132.295 Y92.105 E11.21998
G1 X133.601 Y93.86 E11.3946
G1 X133.874 Y94.264 E11.43353
G1 X135.127 Y96.35 E11.62777
G1 X135.31 Y96.692 E11.65873
G1 X136.388 Y98.977 E11.86041
G1 X136.381 Y98.987 E11.86138
G1 X136.527 Y99.327 E11.89092
G1 X137.303 Y101.495 E12.07473
G1 X137.453 Y102.02 E12.11832
G1 X138.009 Y104.243 E12.30123
G1 X138.101 Y104.723 E12.34025
G1 X138.435 Y107 E12.52395
G1 X138.485 Y107.44 E12.5593
G1 X138.588 Y109.667 E12.73726
G1 X138.591 Y110.152 E12.77597
G1 X138.484 Y112.461 E12.96049
G1 X138.494 Y112.472 E12.96167
G1 X138.423 Y113.096 E13.0118
G1 X138.101 Y115.273 E13.18747
G1 X138.009 Y115.753 E13.22649
G1 X137.406 Y118.155 E13.42417
G1 X137.284 Y118.549 E13.4571
G1 X136.43 Y120.938 E13.65962
G1 X135.31 Y123.296 E13.86799
G1 X135.131 Y123.636 E13.89867
G1 X133.989 Y125.551 E14.07665
G1 X133.6 Y126.138 E14.13286
G1 X132.3 Y127.894 E14.30726
G1 X131.972 Y128.295 E14.34862
G1 X130.418 Y130.015 E14.53365
G1 X130.012 Y130.417 E14.57926
G1 X128.299 Y131.968 E14.76372
G1 X127.894 Y132.295 E14.80527
G1 X126.142 Y133.6 E14.97966
G1 X125.635 Y133.932 E15.02803
G1 X123.544 Y135.177 E15.22229
G1 X123.301 Y135.311 E15.24444
G1 X120.926 Y136.434 E15.45415
G1 X118.513 Y137.299 E15.65877
G1 X117.972 Y137.453 E15.70367
G1 X115.752 Y138.009 E15.88635
G1 X115.404 Y138.077 E15.91466
G1 X113.114 Y138.419 E16.09948
G1 X112.462 Y138.484 E16.15179
G1 X110.304 Y138.588 E16.32425
G1 X109.844 Y138.591 E16.36097
G1 X107.539 Y138.488 E16.54515
G1 X106.887 Y138.419 E16.59748
G1 X104.596 Y138.077 E16.78239
G1 X104.243 Y138.009 E16.81108
G1 X101.836 Y137.402 E17.00923
G1 X101.474 Y137.292 E17.03944
G1 X99.034 Y136.422 E17.24622
G1 X96.689 Y135.305 E17.45356
G1 X96.438 Y135.177 E17.47605
G1 X94.264 Y133.874 E17.67837
G1 X93.86 Y133.601 E17.71729
G1 X92.104 Y132.301 E17.89169
G1 X91.643 Y131.917 E17.93959
G1 X89.984 Y130.418 E18.11807
G1 X89.574 Y130.008 E18.16435
G1 X88.016 Y128.283 E18.3499
G1 X87.7 Y127.894 E18.3899
G1 X86.396 Y126.142 E18.56424
G1 X86.063 Y125.635 E18.61266
G1 X84.92 Y123.729 E18.79007
G1 X84.689 Y123.303 E18.82875
G1 X83.601 Y121.007 E19.03156
G1 X82.701 Y118.519 E19.24276
G1 X82.59 Y118.149 E19.27359
G1 X81.987 Y115.753 E19.47082
G1 X81.895 Y115.273 E19.50983
G1 X81.573 Y113.092 E19.68581
G1 X81.503 Y112.474 E19.73546
G1 X81.516 Y112.46 E19.73699
G1 X81.408 Y110.32 E19.90803
G1 X81.405 Y109.845 E19.94595
G1 X81.516 Y107.536 E20.13047
G1 X81.506 Y107.525 E20.13166
G1 X81.573 Y106.899 E20.18191
G1 X81.895 Y104.723 E20.3575
G1 X81.987 Y104.243 E20.39652
G1 X82.535 Y102.049 E20.57703
G1 X82.697 Y101.496 E20.62303
G1 X83.589 Y99.01 E20.83386
G1 X83.603 Y99.007 E20.835
G1 X84.686 Y96.701 E21.03837
G1 X84.924 Y96.258 E21.07851
G1 X86.007 Y94.446 E21.24702
G1 X86.4 Y93.859 E21.30341
G1 X87.7 Y92.102 E21.47787
G1 X88.024 Y91.705 E21.51878
G1 X89.583 Y89.98 E21.70438
G1 X89.984 Y89.578 E21.7497
G0 F9000 X90.064 Y90.064
G1 F1125 X99.276 Y99.276 E22.78963
G1 F1500 E16.28963
G0 F9000 X98.204 Y100.466
G1 F1500 E22.78963
G1 F1125 X88.98 Y91.243 E23.83086
G1 F1500 E17.33086
G0 F9000 X87.934 Y92.459
G1 F1500 E23.83086
G1 F1125 X97.255 Y101.781 E24.88315
G1 F1500 E18.38315
G0 F9000 X96.432 Y103.221
G1 F1500 E24.88315
G1 F1125 X86.971 Y93.759 E25.95125
G1 F1500 E19.45125
G0 F9000 X86.07 Y95.121
G1 F1500 E25.95125
G1 F1125 X95.748 Y104.799 E27.04379
G1 F1500 E20.54379
G0 F9000 X95.229 Y106.543
G1 F1500 E27.04379
G1 F1125 X85.226 Y96.54 E28.17301
G1 F1500 E21.67301
G0 F9000 X84.487 Y98.064
G1 F1500 E28.17301
G1 F1125 X94.909 Y108.486 E29.34954
G1 F1500 E22.84954
G0 F9000 X94.844 Y110.683
G1 F1500 E29.34954
G1 F1125 X83.791 Y99.631 E30.59724
G1 F1500 E24.09724
G0 F9000 X83.193 Y101.295
G1 F1500 E30.59724
G1 F1125 X95.196 Y113.298 E31.95224
G1 F1500 E25.45224
G0 F9000 X96.445 Y116.81
G1 F1500 E31.95224
G1 F1125 X82.695 Y103.059 E33.50452
G1 F1500 E27.00452
G0 F9000 X82.273 Y104.9
G1 F1500 E33.50452
G1 F1125 X115.092 Y137.719 E37.20941
G1 F1500 E30.70941
G0 F9000 X116.935 Y137.3
G1 F1500 E37.20941
G1 F1125 X103.179 Y123.544 E38.7623
G1 F1500 E32.2623
G0 F9000 X106.71 Y124.812
G1 F1500 E38.7623
G1 F1125 X118.703 Y136.805 E40.11618
G1 F1500 E33.61618
G0 F9000 X120.369 Y136.208
G1 F1500 E40.11618
G1 F1125 X109.315 Y125.154 E41.36405
G1 F1500 E34.86405
G0 F9000 X111.513 Y125.089
G1 F1500 E41.36405
G1 F1125 X121.936 Y135.513 E42.54074
G1 F1500 E36.04074
G0 F9000 X123.452 Y134.765
G1 F1500 E42.54074
G1 F1125 X113.453 Y124.767 E43.66946
G1 F1500 E37.16946
G0 F9000 X115.201 Y124.252
G1 F1500 E43.66946
G1 F1125 X124.87 Y133.921 E44.76098
G1 F1500 E38.26098
G0 F9000 X126.24 Y133.028
G1 F1500 E44.76098
G1 F1125 X116.786 Y123.574 E45.82823
G1 F1500 E39.32823
G0 F9000 X118.223 Y122.748
G1 F1500 E45.82823
G1 F1125 X127.537 Y132.062 E46.87967
G1 F1500 E40.37967
G0 F9000 X128.754 Y131.017
G1 F1500 E46.87967
G1 F1125 X119.533 Y121.796 E47.92062
G1 F1500 E41.42062
G0 F9000 X120.723 Y120.723
G1 F1500 E47.92062
G1 F1125 X129.933 Y129.933 E48.96033
G1 F1500 E42.46033
G0 F9000 X131.018 Y128.756
G1 F1500 E48.96033
G1 F1125 X121.793 Y119.531 E50.00172
G1 F1500 E43.50172
G0 F9000 X122.742 Y118.217
G1 F1500 E50.00172
G1 F1125 X132.065 Y127.539 E51.05413
G1 F1500 E44.55413
G0 F9000 X133.027 Y126.239
G1 F1500 E51.05413
G1 F1125 X123.565 Y116.777 E52.12228
G1 F1500 E45.62228
G0 F9000 X124.25 Y115.199
G1 F1500 E52.12228
G1 F1125 X133.926 Y124.875 E53.21459
G1 F1500 E46.71459
G0 F9000 X134.772 Y123.459
G1 F1500 E53.21459
G1 F1125 X124.78 Y113.466 E54.34263
G1 F1500 E47.84263
G0 F9000 X125.088 Y111.511
G1 F1500 E54.34263
G1 F1125 X135.513 Y121.936 E55.51949
G1 F1500 E49.01949
G0 F9000 X136.209 Y120.369
G1 F1500 E55.51949
G1 F1125 X125.156 Y109.317 E56.7672
G1 F1500 E50.2672
G0 F9000 X124.799 Y106.697
G1 F1500 E56.7672
G1 F1125 X136.805 Y118.703 E58.12254
G1 F1500 E51.62254
G0 F9000 X137.3 Y116.936
G1 F1500 E58.12254
G1 F1125 X123.553 Y103.189 E59.67442
G1 F1500 E53.17442
G0 F9000 X122.192 Y103.737
G0 X116.651 Y98.015
G0 X116.82 Y96.455
G1 F1500 E59.67442
G1 F1125 X103.061 Y82.696 E61.22765
G1 F1500 E54.72765
G0 F9000 X101.296 Y83.194
G1 F1500 E61.22765
G1 F1125 X113.289 Y95.187 E62.58153
G1 F1500 E56.08153
G0 F9000 X110.682 Y94.843
G1 F1500 E62.58153
G1 F1125 X99.628 Y83.789 E63.8294
G1 F1500 E57.3294
G0 F9000 X98.059 Y84.483
G1 F1500 E63.8294
G1 F1125 X108.483 Y94.906 E65.00609
G1 F1500 E58.50609
G0 F9000 X106.544 Y95.23
G1 F1500 E65.00609
G1 F1125 X96.54 Y85.226 E66.13543
G1 F1500 E59.63543
G0 F9000 X95.124 Y86.073
G1 F1500 E66.13543
G1 F1125 X104.799 Y95.748 E67.22763
G1 F1500 E60.72763
G0 F9000 X103.214 Y96.426
G1 F1500 E67.22763
G1 F1125 X93.758 Y86.97 E68.2951
G1 F1500 E61.7951
G0 F9000 X92.461 Y87.936
G1 F1500 E68.2951
G1 F1125 X101.775 Y97.25 E69.34655
G1 F1500 E62.84655
G0 F9000 X100.462 Y98.199
G1 F1500 E69.34655
G1 F1125 X91.243 Y88.98 E70.38727
G1 F1500 E63.88727
G0 F9000 X90.26 Y87.895
G0 X91.481 Y86.839
G0 X93.796 Y85.162
G0 X96.314 Y83.69
G0 X98.955 Y82.476
G0 X101.139 Y81.695
G0 X101.793 Y81.475
G0 X104.067 Y80.939
G0 X104.905 Y82.278
G1 F1500 E70.38727
G1 F1125 X137.723 Y115.096 E74.09205
G1 F1500 E67.59205
G0 F9000 X138.015 Y113.124
G1 F1500 E74.09205
G1 F1125 X106.874 Y81.984 E77.60746
G1 F1500 E71.10746
G0 F9000 X108.996 Y81.843
G1 F1500 E77.60746
G1 F1125 X138.152 Y110.999 E80.89884
G1 F1500 E74.39884
G0 F9000 X138.145 Y108.729
G1 F1500 E80.89884
G1 F1125 X111.271 Y81.855 E83.93261
G1 F1500 E77.43261
G0 F9000 X113.756 Y82.077
G1 F1500 E83.93261
G1 F1125 X137.92 Y106.241 E86.66045
G1 F1500 E80.16045
G0 F9000 X137.401 Y103.46
G1 F1500 E86.66045
G1 F1125 X116.54 Y82.599 E89.01542
G1 F1500 E82.51542
G0 F9000 X119.783 Y83.579
G1 F1500 E89.01542
G1 F1125 X136.421 Y100.217 E90.89366
G1 F1500 E84.39366
G0 F9000 X137.521 Y98.947
G0 X135.994 Y95.725
G0 X134.426 Y95.959
G1 F1500 E90.89366
G1 F1125 X124.034 Y85.567 E92.0668
G1 F1500 E85.5668
G0 F9000 X124.786 Y84.311
G0 X123.678 Y83.686
G0 X121.045 Y82.476
G0 X118.861 Y81.695
G0 X118.053 Y81.423
G0 X115.194 Y80.783
G0 X112.576 Y80.456
G0 X109.66 Y80.346
G0 X106.757 Y80.522
G0 X104.806 Y80.783
G0 X101.947 Y81.423
G0 X100.468 Y81.912
G0 X98.334 Y82.736
G0 X95.709 Y84.015
G0 X93.232 Y85.54
G0 X90.941 Y87.279
G0 X88.802 Y89.259
G0 X86.837 Y91.484
G0 X85.151 Y93.814
G0 X83.686 Y96.322
G0 X82.476 Y98.955
G0 X81.695 Y101.139
G0 X81.423 Y101.947
G0 X80.849 Y104.521
G0 X80.536 Y106.658
G0 X81.981 Y106.871
G1 F1500 E92.0668
G1 F1125 X113.123 Y138.013 E95.58237
G1 F1500 E89.08237
G0 F9000 X111.001 Y138.154
G1 F1500 E95.58237
G1 F1125 X81.845 Y108.998 E98.87376
G1 F1500 E92.37376
G0 F9000 X81.857 Y111.272
G1 F1500 E98.87376
G1 F1125 X108.724 Y138.14 E101.90679
G1 F1500 E95.40679
G0 F9000 X106.239 Y137.918
G1 F1500 E101.90679
G1 F1125 X82.075 Y113.753 E104.63469
G1 F1500 E98.13469
G0 F9000 X82.597 Y116.538
G1 F1500 E104.63469
G1 F1125 X103.457 Y137.398 E106.98955
G1 F1500 E100.48955
G0 F9000 X100.213 Y136.417
G1 F1500 E106.98955
G1 F1125 X83.585 Y119.789 E108.86666
G1 F1500 E102.36666
G0 F9000 X82.476 Y121.045
G0 X84.007 Y124.279
G0 X85.573 Y124.039
G1 F1500 E108.86666
G1 F1125 X95.954 Y134.42 E110.03856
M104 S218
G1 F1500 E103.53856
G0 F300 X95.954 Y134.42 Z0.54
G0 F9000 X95.725 Y135.995
G0 X98.955 Y137.524
G0 X101.139 Y138.305
G0 X101.947 Y138.577
G0 X104.806 Y139.217
G0 X107.424 Y139.544
G0 X110.34 Y139.654
G0 X113.243 Y139.478
G0 X115.194 Y139.217
G0 X118.053 Y138.577
G0 X119.532 Y138.088
G0 X121.666 Y137.264
G0 X123.779 Y136.236
G0 X125.639 Y135.176
G0 X124.884 Y133.917
;TIME_ELAPSED:119.844047
;LAYER:-5
;TYPE:SUPPORT
G1 F1500 E110.03856
G1 F1125 X133.631 Y125.17 E111.27285
G1 F1500 E104.77285
G0 F9000 X134.769 Y126.314
G0 X132.791 Y128.98
G0 X130.742 Y131.197
G0 X128.741 Y132.965
G0 X127.365 Y134.001
G0 X125.964 Y133.234
G1 F1500 E111.27285
G1 F1125 X127.578 Y132.037 E111.47335
G1 X128.086 Y131.426 E111.55264
G1 X128.191 Y131.532 E111.56753
G1 X129.736 Y130.133 E111.7755
G1 X130.141 Y129.728 E111.83265
G1 X131.532 Y128.191 E112.03949
G1 X131.426 Y128.086 E112.05438
G1 X132.037 Y127.578 E112.13366
G1 X133.234 Y125.964 E112.33416
G1 X133.631 Y125.17 E112.42274
G1 X133.925 Y124.876 E112.46423
G1 X134.739 Y123.522 E112.62186
G1 X134.951 Y123.129 E112.66642
G1 X135.569 Y121.818 E112.81104
G1 X121.811 Y135.576 E114.75244
