;FLAVOR:Marlin
;TIME:1374
;Filament used: 0.885557m
;Layer height: 0.2
;MINX:98.475
;MINY:78.461
;MINZ:0.24
;MAXX:141.525
;MAXY:121.528
;MAXZ:5.09
;TARGET_MACHINE.NAME:Creality Ender-3 Pro
;Generated with Cura_SteamEngine 5.7.1
M82 ;absolute extrusion mode
; Ender 3 Custom Start G-code
G92 E0 ; Reset Extruder
G28 ; Home all axes
G1 Z5.0 F3000 ; Move Z Axis up a bit during heating to not damage bed
M104 S175 ; Start heating up the nozzle most of the way
M190 S60 ; Start heating the bed, wait until target temperature reached
M109 S218.0 ; Finish heating the nozzle
G1 Z2.0 F3000 ; Move Z Axis up little to prevent scratching of Heat Bed
G1 X0.1 Y20 Z0.3 F5000.0 ; Move to start position
G1 X0.1 Y200.0 Z0.3 F1500.0 E15 ; Draw the first line
G1 X0.4 Y200.0 Z0.3 F5000.0 ; Move to side a little
G1 X0.4 Y20 Z0.3 F1500.0 E30 ; Draw the second line
G92 E0 ; Reset Extruder
G1 Z2.0 F3000 ; Move Z Axis up little to prevent scratching of Heat Bed
G1 X5 Y20 Z0.3 F5000.0 ; Move over to prevent blob squish
G92 E0
G92 E0
G1 F1500 E-6.5
;LAYER_COUNT:20
;LAYER:-6
M107
G0 F9000 X101.948 Y83.272 Z0.24
;TYPE:SUPPORT-INTERFACE
G1 F1500 E0
G1 F1125 X102.156 Y83.039 E0.02493
G1 X102.34 Y82.855 E0.0457
G1 X102.561 Y82.667 E0.06886
G1 X102.812 Y82.472 E0.09424
G1 X103.018 Y82.333 E0.11407
G1 X103.59 Y81.892 E0.17173
G1 X104.1 Y81.414 E0.22752
G1 X104.29 Y81.25 E0.24756
G1 X104.535 Y81.07 E0.27183
G1 X104.904 Y80.834 E0.30679
G1 X105.418 Y80.577 E0.35266
G1 X105.952 Y80.385 E0.39796
G1 X106.271 Y80.292 E0.42449
G1 X106.645 Y80.211 E0.45503
G1 X107.262 Y80.037 E0.5062
G1 X108.064 Y79.748 E0.57425
G1 X108.353 Y79.658 E0.59841
G1 X108.361 Y79.665 E0.59926
G1 X108.698 Y79.599 E0.62668
G1 X109.057 Y79.551 E0.65559
G1 X109.33 Y79.532 E0.67743
G1 X109.607 Y79.532 E0.69954
G1 X109.906 Y79.551 E0.72346
G1 X110.203 Y79.588 E0.74735
G1 X110.65 Y79.669 E0.78361
G1 X111.485 Y79.758 E0.85064
G1 X111.881 Y79.768 E0.88226
G1 X112.483 Y79.836 E0.93062
G1 X112.768 Y79.891 E0.95379
G1 X113.142 Y79.986 E0.9846
G1 X113.614 Y80.169 E1.02501
G1 X113.968 Y80.334 E1.05618
G1 X114.461 Y80.654 E1.1031
G1 X115.283 Y81.106 E1.17798
G1 X115.337 Y81.12 E1.18243
G1 X115.624 Y81.248 E1.20752
G1 X116.061 Y81.48 E1.24701
G1 X116.525 Y81.793 E1.29169
G1 X116.811 Y82.013 E1.32049
G1 X117.369 Y82.394 E1.37443
G1 X117.921 Y82.677 E1.42394
G1 X118.591 Y82.926 E1.481
G1 X119.263 Y83.079 E1.53601
G1 X119.966 Y83.144 E1.59237
G1 X120.613 Y83.124 E1.64404
G1 X121.305 Y83.015 E1.69996
G1 X121.951 Y82.828 E1.75364
G1 X122.601 Y82.543 E1.8103
G1 X123.198 Y82.184 E1.86591
G1 X123.818 Y81.678 E1.92979
G1 X124.092 Y81.422 E1.95972
G1 X124.298 Y81.246 E1.98135
G1 X124.536 Y81.07 E2.00498
G1 X124.902 Y80.835 E2.0397
G1 X125.418 Y80.577 E2.08575
G1 X125.952 Y80.385 E2.13105
G1 X126.271 Y80.292 E2.15757
G1 X126.657 Y80.209 E2.18909
G1 X127.262 Y80.037 E2.23929
G1 X128.064 Y79.748 E2.30734
G1 X128.353 Y79.658 E2.3315
G1 X128.361 Y79.665 E2.33235
G1 X128.698 Y79.599 E2.35976
G1 X129.057 Y79.551 E2.38868
G1 X129.33 Y79.532 E2.41052
G1 X129.607 Y79.532 E2.43263
G1 X129.906 Y79.551 E2.45655
G1 X130.203 Y79.588 E2.48044
G1 X130.65 Y79.669 E2.5167
G1 X131.485 Y79.758 E2.58373
G1 X131.881 Y79.768 E2.61535
G1 X132.483 Y79.836 E2.66371
G1 X132.768 Y79.891 E2.68688
G1 X133.142 Y79.986 E2.71769
G1 X133.614 Y80.169 E2.7581
G1 X133.968 Y80.334 E2.78927
G1 X134.461 Y80.654 E2.83619
G1 X135.294 Y81.111 E2.91203
G1 X135.337 Y81.12 E2.91554
G1 X135.624 Y81.248 E2.94062
G1 X136.062 Y81.48 E2.98019
G1 X136.618 Y81.853 E3.03363
G1 X136.955 Y82.154 E3.0697
G1 X137.158 Y82.36 E3.09279
G1 X137.329 Y82.557 E3.11361
G1 X137.539 Y82.833 E3.14129
G1 X137.614 Y82.951 E3.15246
G1 X138.019 Y83.499 E3.20685
G1 X138.208 Y83.693 E3.22847
G1 X138.248 Y83.746 E3.23377
G1 X138.561 Y84.075 E3.27002
G1 X138.774 Y84.329 E3.29648
G1 X138.927 Y84.533 E3.31683
G1 X139.096 Y84.798 E3.34192
G1 X139.397 Y85.366 E3.39324
G1 X139.651 Y86.047 E3.45125
G1 X139.79 Y86.653 E3.50088
G1 X140.017 Y87.401 E3.56328
G1 X140.166 Y87.788 E3.59638
G1 X140.25 Y88.054 E3.61865
G1 X140.365 Y88.548 E3.65914
G1 X140.456 Y89.235 E3.71446
G1 X140.456 Y89.716 E3.75285
G1 X140.434 Y90.006 E3.77607
G1 X140.38 Y90.394 E3.80734
G1 X140.366 Y90.406 E3.80881
G1 X140.263 Y91.15 E3.86877
G1 X140.236 Y91.966 E3.93394
G1 X140.207 Y92.337 E3.96364
G1 X140.103 Y92.815 E4.00269
G1 X140.03 Y93.078 E4.02448
G1 X139.882 Y93.49 E4.05943
G1 X139.687 Y93.902 E4.09581
G1 X139.543 Y94.164 E4.11968
G1 X139.137 Y94.809 E4.18051
G1 X138.908 Y95.267 E4.22139
G1 X138.725 Y95.692 E4.25832
G1 X138.453 Y96.162 E4.30167
G1 X138.228 Y96.491 E4.33349
G1 X138.001 Y96.781 E4.36289
G1 X137.61 Y97.353 E4.41819
G1 X137.288 Y97.991 E4.47524
G1 X137.062 Y98.62 E4.52859
G1 X136.916 Y99.285 E4.58294
G1 X136.852 Y99.941 E4.63555
G1 X136.877 Y100.65 E4.69218
G1 X136.985 Y101.325 E4.74675
G1 X137.18 Y101.978 E4.80115
G1 X137.458 Y102.608 E4.85612
G1 X137.803 Y103.18 E4.90944
G1 X138.318 Y103.819 E4.97495
G1 X138.57 Y104.084 E5.00414
G1 X138.77 Y104.321 E5.0289
G1 X138.926 Y104.532 E5.04984
G1 X139.096 Y104.797 E5.07497
G1 X139.397 Y105.366 E5.12636
G1 X139.651 Y106.047 E5.18438
G1 X139.789 Y106.653 E5.23399
G1 X140.017 Y107.401 E5.29641
G1 X140.166 Y107.788 E5.32951
G1 X140.25 Y108.054 E5.35178
G1 X140.365 Y108.548 E5.39227
G1 X140.456 Y109.235 E5.44758
G1 X140.456 Y109.716 E5.48598
G1 X140.434 Y110.006 E5.5092
G1 X140.38 Y110.394 E5.54047
G1 X140.366 Y110.406 E5.54194
G1 X140.263 Y111.15 E5.60189
G1 X140.236 Y111.966 E5.66707
G1 X140.207 Y112.337 E5.69677
G1 X140.103 Y112.815 E5.73582
G1 X140.03 Y113.078 E5.75761
G1 X139.882 Y113.49 E5.79255
G1 X139.687 Y113.902 E5.82894
G1 X139.543 Y114.164 E5.8528
G1 X139.153 Y114.782 E5.91114
G1 X138.91 Y115.265 E5.9543
G1 X138.725 Y115.692 E5.99144
G1 X138.453 Y116.162 E6.03479
G1 X138.153 Y116.601 E6.07723
G1 X137.864 Y116.933 E6.11237
G1 X137.544 Y117.25 E6.14832
G1 X137.19 Y117.522 E6.18396
G1 X136.974 Y117.667 E6.20473
G1 X136.427 Y118.087 E6.25978
G1 X135.904 Y118.578 E6.31704
G1 X135.704 Y118.749 E6.33805
G1 X135.461 Y118.925 E6.362
G1 X135.178 Y119.108 E6.3889
G1 X134.58 Y119.42 E6.44274
G1 X134.049 Y119.614 E6.48787
G1 X133.728 Y119.703 E6.51446
G1 X133.338 Y119.787 E6.5463
G1 X132.732 Y119.963 E6.59667
G1 X131.839 Y120.285 E6.67245
G1 X131.292 Y120.397 E6.71702
G1 X130.939 Y120.445 E6.74546
G1 X130.666 Y120.464 E6.7673
G1 X130.348 Y120.464 E6.79269
G1 X129.959 Y120.434 E6.82383
G1 X129.414 Y120.338 E6.868
G1 X128.955 Y120.282 E6.90491
G1 X128.941 Y120.266 E6.90661
G1 X127.906 Y120.232 E6.98927
G1 X127.471 Y120.163 E7.02443
G1 X126.879 Y120.021 E7.07303
G1 X126.434 Y119.85 E7.11108
G1 X126.047 Y119.676 E7.14495
G1 X125.14 Y119.112 E7.23021
G1 X124.766 Y118.925 E7.26359
G1 X124.397 Y118.762 E7.29579
G1 X124.103 Y118.61 E7.32221
G1 X123.795 Y118.426 E7.35085
G1 X123.472 Y118.208 E7.38195
G1 X123.176 Y117.976 E7.41198
G1 X122.616 Y117.596 E7.466
G1 X122.006 Y117.288 E7.52054
G1 X121.368 Y117.059 E7.57465
G1 X120.706 Y116.912 E7.62878
G1 X120.034 Y116.852 E7.68264
G1 X119.357 Y116.873 E7.73671
G1 X118.678 Y116.988 E7.79168
G1 X118.076 Y117.163 E7.84172
G1 X117.392 Y117.456 E7.90112
G1 X116.802 Y117.812 E7.95613
G1 X116.162 Y118.334 E8.02205
G1 X115.904 Y118.578 E8.0504
G1 X115.704 Y118.749 E8.0714
G1 X115.461 Y118.925 E8.09535
G1 X115.178 Y119.108 E8.12226
G1 X114.58 Y119.42 E8.1761
G1 X114.049 Y119.614 E8.22122
G1 X113.728 Y119.703 E8.24781
G1 X113.34 Y119.787 E8.2795
G1 X112.732 Y119.963 E8.33003
G1 X111.839 Y120.285 E8.40581
G1 X111.292 Y120.397 E8.45037
G1 X110.939 Y120.445 E8.47881
G1 X110.666 Y120.464 E8.50066
G1 X110.348 Y120.464 E8.52604
G1 X109.959 Y120.434 E8.55719
G1 X109.414 Y120.338 E8.60136
G1 X108.955 Y120.282 E8.63827
G1 X108.941 Y120.266 E8.63997
G1 X107.906 Y120.232 E8.72263
G1 X107.471 Y120.163 E8.75779
G1 X106.879 Y120.021 E8.80638
G1 X106.434 Y119.85 E8.84444
G1 X106.047 Y119.676 E8.87831
G1 X105.14 Y119.112 E8.96357
G1 X104.766 Y118.925 E8.99694
G1 X104.397 Y118.762 E9.02915
G1 X104.103 Y118.61 E9.05556
G1 X103.796 Y118.426 E9.08413
G1 X103.393 Y118.152 E9.12304
G1 X103.068 Y117.865 E9.15765
G1 X102.841 Y117.634 E9.1835
G1 X102.667 Y117.438 E9.20442
G1 X102.46 Y117.162 E9.23196
G1 X102.375 Y117.032 E9.24436
G1 X101.977 Y116.495 E9.29771
G1 X101.434 Y115.92 E9.36084
G1 X101.226 Y115.675 E9.3865
G1 X101.052 Y115.439 E9.4099
G1 X100.763 Y114.954 E9.45497
G1 X100.588 Y114.589 E9.48728
G1 X100.433 Y114.185 E9.52182
G1 X100.334 Y113.888 E9.54681
G1 X100.215 Y113.359 E9.5901
G1 X99.987 Y112.614 E9.65229
G1 X99.835 Y112.21 E9.68674
G1 X99.742 Y111.909 E9.71189
G1 X99.63 Y111.452 E9.74945
G1 X99.54 Y110.762 E9.805
G1 X99.54 Y110.28 E9.84347
G1 X99.562 Y109.99 E9.86669
G1 X99.615 Y109.602 E9.89795
G1 X99.63 Y109.59 E9.89948
G1 X99.733 Y108.851 E9.95904
G1 X99.756 Y108.189 E10.01192
G1 X99.747 Y108.179 E10.01299
G1 X99.782 Y107.776 E10.04528
G1 X99.826 Y107.492 E10.06822
G1 X99.896 Y107.183 E10.09351
G1 X99.971 Y106.915 E10.11573
G1 X100.1 Y106.539 E10.14746
G1 X100.309 Y106.095 E10.18663
G1 X100.453 Y105.836 E10.21028
G1 X100.851 Y105.201 E10.27011
G1 X101.086 Y104.735 E10.31177
G1 X101.222 Y104.42 E10.33915
G1 X101.483 Y103.92 E10.38418
G1 X101.771 Y103.505 E10.4245
G1 X101.997 Y103.213 E10.45397
G1 X102.393 Y102.632 E10.5101
G1 X102.714 Y101.993 E10.56718
G1 X102.93 Y101.382 E10.61891
G1 X103.079 Y100.737 E10.67176
G1 X103.144 Y100.067 E10.72549
G1 X103.119 Y99.343 E10.78332
G1 X103.01 Y98.675 E10.83734
G1 X102.818 Y98.021 E10.89175
G1 X102.558 Y97.425 E10.94366
G1 X102.181 Y96.799 E11.00199
G1 X101.677 Y96.176 E11.06596
G1 X101.43 Y95.916 E11.09458
G1 X101.226 Y95.675 E11.11979
G1 X101.052 Y95.439 E11.14319
G1 X100.763 Y94.954 E11.18826
G1 X100.588 Y94.589 E11.22057
G1 X100.433 Y94.185 E11.25511
G1 X100.334 Y93.888 E11.2801
G1 X100.215 Y93.359 E11.32338
G1 X99.987 Y92.614 E11.38558
G1 X99.835 Y92.21 E11.42003
G1 X99.742 Y91.909 E11.44518
G1 X99.63 Y91.452 E11.48274
G1 X99.54 Y90.762 E11.53828
G1 X99.54 Y90.28 E11.57676
G1 X99.562 Y89.99 E11.59998
G1 X99.615 Y89.602 E11.63124
G1 X99.63 Y89.59 E11.63277
G1 X99.733 Y88.851 E11.69233
G1 X99.756 Y88.189 E11.7452
G1 X99.747 Y88.179 E11.74628
G1 X99.782 Y87.776 E11.77857
G1 X99.826 Y87.492 E11.80151
G1 X99.896 Y87.183 E11.8268
G1 X99.971 Y86.915 E11.84901
G1 X100.1 Y86.539 E11.88075
G1 X100.309 Y86.095 E11.91992
G1 X100.453 Y85.836 E11.94357
G1 X100.851 Y85.201 E12.0034
G1 X101.086 Y84.735 E12.04506
G1 X101.222 Y84.42 E12.07244
G1 X101.484 Y83.919 E12.11757
G1 X101.783 Y83.485 E12.15964
G1 X101.948 Y83.272 E12.18115
G0 F9000 X101.99 Y83.888
G1 F1125 X136.02 Y117.918 E16.02275
G1 F1500 E9.52275
G0 F9000 X137.296 Y116.931
G1 F1500 E16.02275
G1 F1125 X103.115 Y82.751 E19.88134
G1 F1500 E13.38134
G0 F9000 X104.353 Y81.726
G1 F1500 E19.88134
G1 F1125 X138.284 Y115.657 E23.71177
G1 F1500 E17.21177
G0 F9000 X139.064 Y114.174
G1 F1500 E23.71177
G1 F1125 X105.767 Y80.877 E27.47062
G1 F1500 E20.97062
G0 F9000 X107.523 Y80.37
G1 F1500 E27.47062
G1 F1125 X139.743 Y112.59 E31.10789
G1 F1500 E24.60789
G0 F9000 X139.946 Y110.531
G1 F1500 E31.10789
G1 F1125 X109.348 Y79.932 E34.56211
G1 F1500 E28.06211
G0 F9000 X111.847 Y80.168
G1 F1500 E34.56211
G1 F1125 X139.871 Y108.193 E37.72576
G1 F1500 E31.22576
G0 F9000 X141.165 Y107.425
G0 X140.379 Y104.965
G0 X139.908 Y104.12
G0 X139.392 Y103.406
G0 X137.99 Y104.049
G1 F1500 E37.72576
G1 F1125 X115.662 Y81.721 E40.24634
G1 F1500 E33.74634
G0 F9000 X119.728 Y83.524
G1 F1500 E40.24634
G1 F1125 X136.464 Y100.26 E42.13564
G1 F1500 E35.63564
G0 F9000 X136.757 Y98.291
G1 F1500 E42.13564
G1 F1125 X121.764 Y83.297 E43.82824
G1 F1500 E37.32824
G0 F9000 X123.31 Y82.581
G1 F1500 E43.82824
G1 F1125 X137.515 Y96.786 E45.43182
G1 F1500 E38.93182
G0 F9000 X138.408 Y95.416
G1 F1500 E45.43182
G1 F1125 X124.55 Y81.558 E46.99623
G1 F1500 E40.49623
G0 F9000 X126.035 Y80.781
G1 F1500 E46.99623
G1 F1125 X139.205 Y93.95 E48.48292
G1 F1500 E41.98292
G0 F9000 X139.808 Y92.29
G1 F1500 E48.48292
G1 F1125 X127.79 Y80.273 E49.83956
G1 F1500 E43.33956
G0 F9000 X129.721 Y79.941
G1 F1500 E49.83956
G1 F1125 X140.001 Y90.22 E51
G1 F1500 E44.5
G0 F9000 X139.681 Y87.638
G1 F1500 E51
G1 F1125 X132.257 Y80.213 E51.83814
G1 F1500 E45.33814
G0 F9000 X131.849 Y78.705
G0 X129.635 Y78.47
G0 X108.933 Y78.461
G0 X108.456 Y78.526
G0 X105.123 Y79.553
G0 X103.909 Y80.212
G0 X101.389 Y82.305
G0 X100.673 Y83.242
G0 X100.127 Y84.275
G0 X101.212 Y85.373
G1 F1500 E51.83814
G1 F1125 X134.729 Y118.89 E55.62183
G1 F1500 E49.12183
G0 F9000 X133.034 Y119.458
G1 F1500 E55.62183
G1 F1125 X100.418 Y86.842 E59.30381
G1 F1500 E52.80381
G0 F9000 X100.135 Y88.821
G1 F1500 E59.30381
G1 F1125 X131.3 Y119.986 E62.82198
G1 F1500 E56.32198
G0 F9000 X128.913 Y119.862
G1 F1500 E62.82198
G1 F1125 X99.962 Y90.911 E66.09022
G1 F1500 E59.59022
G0 F9000 X100.795 Y94.007
G1 F1500 E66.09022
G1 F1125 X125.903 Y119.115 E68.92463
G1 F1500 E62.42463
G0 F9000 X124.591 Y120.026
G0 X123.815 Y119.629
G0 X121.098 Y118.091
G0 X121.12 Y116.595
G1 F1500 E68.92463
G1 F1125 X103.456 Y98.931 E70.91869
G1 F1500 E64.41869
G0 F9000 X103.397 Y101.134
G1 F1500 E70.91869
G1 F1125 X118.822 Y116.559 E72.66
G1 F1500 E66.16
G0 F9000 X117.141 Y117.141
G1 F1500 E72.66
G1 F1125 X102.771 Y102.771 E74.28221
G1 F1500 E67.78221
G0 F9000 X101.842 Y104.105
G1 F1500 E74.28221
G1 F1125 X115.833 Y118.095 E75.86158
G1 F1500 E69.36158
G0 F9000 X114.49 Y119.015
G1 F1500 E75.86158
G1 F1125 X101.074 Y105.599 E77.37609
G1 F1500 E70.87609
G0 F9000 X100.329 Y107.117
G1 F1500 E77.37609
G1 F1125 X112.752 Y119.54 E78.77851
G1 F1500 E72.27851
G0 F9000 X110.984 Y120.035
G1 F1500 E78.77851
G1 F1125 X100.095 Y109.145 E80.00781
G1 F1500 E73.50781
G0 F9000 X100.017 Y111.331
G1 F1500 E80.00781
G1 F1125 X108.537 Y119.851 E80.96962
G1 F1500 E74.46962
G0 F9000 X105.036 Y118.612
G1 F1500 E80.96962
G1 F1125 X101.05 Y114.626 E81.41959
M104 S218
G1 F1500 E74.91959
G0 F300 X101.05 Y114.626 Z0.54
G0 F9000 X99.514 Y114.771
G0 X98.584 Y111.626
G0 X98.475 Y110.577
G0 X98.51 Y89.83
G0 X98.785 Y87.277
G0 X98.92 Y86.574
G0 X99.547 Y85.278
G0 X100.661 Y83.242
G0 X101.389 Y82.305
G0 X103.947 Y80.184
G0 X104.832 Y79.683
G0 X105.739 Y80.886
;TIME_ELAPSED:82.015134
;LAYER:-5
;TYPE:SUPPORT
G1 F1500 E81.41959
G1 F1125 X105.463 Y81.004 E81.44954
G1 X105.114 Y81.176 E81.48837
G1 X104.757 Y81.406 E81.53074
G1 X104.463 Y81.622 E81.56714
G1 X103.809 Y82.234 E81.65652
G1 X103.272 Y82.647 E81.72411
G1 X103.041 Y82.802 E81.75187
G1 X102.713 Y83.054 E81.79314
G1 X102.444 Y83.32 E81.83089
G1 X102.256 Y83.531 E81.85909
G1 X102.094 Y83.739 E81.88539
G1 X101.848 Y84.103 E81.92923
G1 X101.596 Y84.572 E81.98235
G1 X101.465 Y84.87 E82.01484
G1 X101.209 Y85.385 E82.07222
G1 X101.071 Y85.605 E82.09813
G1 X105.819 Y80.857 E82.76813
G1 X106.096 Y80.758 E82.79748
G1 X106.349 Y80.687 E82.8237
G1 X106.745 Y80.6 E82.86415
G1 X107.484 Y80.384 E82.94098
G1 X107.484 Y80.527 E82.95525
G1 X107.632 Y80.459 E82.9715
G1 X100.168 Y87.922 E84.02468
G1 X100.137 Y88.854 E84.11772
G1 X100.056 Y89.448 E84.17754
G1 X109.57 Y79.934 E85.52007
G1 X109.87 Y79.95 E85.55005
G1 X110.14 Y79.984 E85.5772
G1 X110.809 Y80.11 E85.64513
G1 X99.971 Y90.948 E87.17449
G1 X100.028 Y91.384 E87.21836
G1 X100.131 Y91.819 E87.26297
G1 X100.225 Y92.108 E87.29329
G1 X112.137 Y80.197 E88.97413
G1 X112.566 Y80.253 E89.0173
G1 X113.062 Y80.381 E89.06841
G1 X113.281 Y80.466 E89.09185
G1 X100.575 Y93.172 E90.88481
G1 X100.685 Y93.642 E90.93297
G1 X100.762 Y93.912 E90.96098
G1 X100.895 Y94.267 E90.99881
G1 X114.199 Y80.962 E92.87622
G1 X115.112 Y81.464 E92.98018
G1 X101.376 Y95.199 E94.91841
G1 X101.546 Y95.431 E94.94711
G1 X101.733 Y95.655 E94.97622
G1 X102.022 Y95.968 E95.01873
G1 X116.042 Y81.948 E96.99711
G1 X116.376 Y82.173 E97.03729
G1 X116.508 Y82.49 E97.07155
G1 X116.797 Y82.49 E97.10039
G1 X116.868 Y82.536 E97.10883
G1 X102.633 Y96.771 E99.11754
G1 X102.889 Y97.195 E99.16696
G1 X103.115 Y97.704 E99.22253
G1 X117.765 Y83.053 E101.28987
G1 X118.468 Y83.309 E101.36453
G1 X118.841 Y83.392 E101.40266
G1 X103.436 Y98.796 E103.5764
G1 X103.519 Y99.3 E103.62736
G1 X103.55 Y100.097 E103.70695
G1 X120.106 Y83.541 E106.04318
G1 X120.692 Y83.521 E106.10168
