;FLAVOR:Marlin
;TIME:3294
;Filament used: 2.51502m
;Layer height: 0.2
;MINX:81.346
;MINY:82.405
;MINZ:0.24
;MAXX:138.654
;MAXY:138.659
;MAXZ:10.49
;TARGET_MACHINE.NAME:Creality Ender-3 Pro
;Generated with Cura_SteamEngine 5.7.1
M82 ;absolute extrusion mode
; Ender 3 Custom Start G-code
G92 E0 ; Reset Extruder
G28 ; Home all axes
G1 Z5.0 F3000 ; Move Z Axis up a bit during heating to not damage bed
M104 S175 ; Start heating up the nozzle most of the way
M190 S60 ; Start heating the bed, wait until target temperature reached
M109 S218.0 ; Finish heating the nozzle
G1 Z2.0 F3000 ; Move Z Axis up little to prevent scratching of Heat Bed
G1 X0.1 Y20 Z0.3 F5000.0 ; Move to start position
G1 X0.1 Y200.0 Z0.3 F1500.0 E15 ; Draw the first line
G1 X0.4 Y200.0 Z0.3 F5000.0 ; Move to side a little
G1 X0.4 Y20 Z0.3 F1500.0 E30 ; Draw the second line
G92 E0 ; Reset Extruder
G1 Z2.0 F3000 ; Move Z Axis up little to prevent scratching of Heat Bed
G1 X5 Y20 Z0.3 F5000.0 ; Move over to prevent blob squish
G92 E0
G92 E0
G1 F1500 E-6.5
;LAYER_COUNT:47
;LAYER:-6
M107
G0 F9000 X90.283 Y90.696 Z0.24
;TYPE:SUPPORT-INTERFACE
G1 F1500 E0
G1 F1125 X90.7 Y90.279 E0.04707
G1 X92.376 Y88.765 E0.22736
G1 X92.729 Y88.481 E0.26353
G1 X94.439 Y87.211 E0.43356
G1 X94.887 Y86.91 E0.47664
G1 X96.749 Y85.797 E0.6498
G1 X97.256 Y85.526 E0.69569
G1 X99.205 Y84.603 E0.86783
G1 X99.739 Y84.386 E0.91385
G1 X101.756 Y83.665 E1.08483
G1 X102.322 Y83.499 E1.13191
G1 X104.446 Y82.967 E1.3067
G1 X104.895 Y82.883 E1.34316
G1 X106.969 Y82.573 E1.51055
G1 X107.642 Y82.495 E1.56464
G1 X107.656 Y82.508 E1.56616
G1 X109.692 Y82.408 E1.72888
G1 X110.152 Y82.405 E1.7656
G1 X112.341 Y82.508 E1.94053
G1 X112.354 Y82.495 E1.94199
G1 X113.027 Y82.573 E1.99608
G1 X115.103 Y82.883 E2.16363
G1 X115.552 Y82.971 E2.20015
G1 X117.878 Y83.555 E2.39159
G1 X118.239 Y83.661 E2.42162
G1 X120.431 Y84.454 E2.60769
G1 X120.789 Y84.602 E2.63862
G1 X122.74 Y85.526 E2.81094
G1 X123.259 Y85.801 E2.85782
G1 X125.112 Y86.91 E3.0302
G1 X125.556 Y87.211 E3.07302
G1 X127.275 Y88.485 E3.24382
G1 X127.628 Y88.769 E3.27998
G1 X129.3 Y90.282 E3.45998
G1 X129.717 Y90.7 E3.50711
G1 X131.232 Y92.377 E3.68751
G1 X131.52 Y92.73 E3.72388
G1 X132.785 Y94.439 E3.89361
G1 X133.078 Y94.875 E3.93554
G1 X134.243 Y96.825 E4.11686
G1 X134.466 Y97.244 E4.15475
G1 X135.397 Y99.205 E4.32803
G1 X135.605 Y99.726 E4.37281
G1 X136.347 Y101.792 E4.54804
G1 X136.497 Y102.312 E4.59124
G1 X137.025 Y104.432 E4.76564
G1 X137.117 Y104.897 E4.80348
G1 X137.427 Y106.996 E4.97284
G1 X137.498 Y107.645 E5.02496
G1 X137.488 Y107.656 E5.02615
G1 X137.588 Y109.668 E5.18695
G1 X137.591 Y110.152 E5.22559
G1 X137.484 Y112.43 E5.40763
G1 X137.43 Y112.974 E5.45126
G1 X137.117 Y115.095 E5.62241
G1 X137.005 Y115.656 E5.66807
G1 X136.505 Y117.659 E5.83286
G1 X136.343 Y118.212 E5.87886
G1 X135.606 Y120.268 E6.05321
G1 X135.369 Y120.846 E6.10307
G1 X134.475 Y122.739 E6.27019
G1 X134.196 Y123.254 E6.31694
G1 X133.065 Y125.145 E6.49283
G1 X132.841 Y125.481 E6.52506
G1 X131.511 Y127.275 E6.70333
G1 X131.227 Y127.628 E6.73949
G1 X129.713 Y129.3 E6.91954
G1 X129.299 Y129.718 E6.96651
G1 X127.619 Y131.232 E7.14703
G1 X127.266 Y131.52 E7.1834
G1 X125.561 Y132.784 E7.35282
G1 X125.11 Y133.085 E7.3961
G1 X123.25 Y134.199 E7.56917
G1 X122.743 Y134.47 E7.61506
G1 X120.792 Y135.397 E7.78748
G1 X120.258 Y135.609 E7.83335
G1 X118.24 Y136.335 E8.00454
G1 X117.676 Y136.497 E8.05138
G1 X115.553 Y137.029 E8.22609
G1 X115.093 Y137.117 E8.26347
G1 X113.027 Y137.423 E8.43019
G1 X112.354 Y137.502 E8.48428
G1 X112.34 Y137.488 E8.48586
G1 X110.304 Y137.588 E8.64858
G1 X109.844 Y137.591 E8.6853
G1 X107.655 Y137.488 E8.86023
G1 X107.642 Y137.501 E8.86169
G1 X106.969 Y137.423 E8.91577
G1 X104.878 Y137.113 E9.08451
G1 X104.345 Y137.005 E9.12792
G1 X102.12 Y136.446 E9.31105
G1 X101.775 Y136.34 E9.33986
G1 X99.724 Y135.606 E9.51375
G1 X99.206 Y135.394 E9.55843
G1 X97.138 Y134.411 E9.7412
G1 X96.727 Y134.188 E9.77853
G1 X94.883 Y133.082 E9.95017
G1 X94.427 Y132.776 E9.99401
G1 X92.726 Y131.515 E10.16303
G1 X92.377 Y131.232 E10.1989
G1 X90.695 Y129.713 E10.37981
G1 X90.278 Y129.299 E10.42672
G1 X88.856 Y127.731 E10.59569
G1 X88.484 Y127.274 E10.64272
G1 X87.156 Y125.481 E10.82083
G1 X86.911 Y125.113 E10.85612
G1 X85.837 Y123.326 E11.02255
G1 X85.522 Y122.736 E11.07593
G1 X84.63 Y120.846 E11.24276
G1 X84.386 Y120.255 E11.2938
G1 X83.649 Y118.197 E11.46829
G1 X83.495 Y117.66 E11.51289
G1 X82.991 Y115.644 E11.67877
G1 X82.879 Y115.079 E11.72475
G1 X82.566 Y112.97 E11.89494
G1 X82.511 Y112.43 E11.93827
G1 X82.408 Y110.32 E12.1069
G1 X82.405 Y109.844 E12.14489
G1 X82.512 Y107.566 E12.32693
G1 X82.566 Y107.022 E12.37057
G1 X82.879 Y104.901 E12.54171
G1 X82.991 Y104.341 E12.5873
G1 X83.495 Y102.336 E12.75233
G1 X83.653 Y101.783 E12.79824
G1 X84.39 Y99.729 E12.97243
G1 X84.63 Y99.155 E13.02209
G1 X85.526 Y97.256 E13.18971
G1 X85.801 Y96.741 E13.23631
G1 X86.911 Y94.885 E13.40894
G1 X87.156 Y94.514 E13.44443
G1 X88.485 Y92.722 E13.62252
G1 X88.764 Y92.377 E13.65793
G1 X90.283 Y90.696 E13.83879
G0 F9000 X90.773 Y90.773
G1 F1125 X129.224 Y129.224 E18.17947
G1 F1500 E11.67947
G0 F9000 X130.309 Y128.046
G1 F1500 E18.17947
G1 F1125 X91.951 Y89.689 E22.5096
G1 F1500 E16.0096
G0 F9000 X93.175 Y88.649
G1 F1500 E22.5096
G1 F1125 X131.349 Y126.823 E26.81901
G1 F1500 E20.31901
G0 F9000 X132.312 Y125.523
G1 F1500 E26.81901
G1 F1125 X94.474 Y87.685 E31.09049
G1 F1500 E24.59049
G0 F9000 X95.851 Y86.8
G1 F1500 E31.09049
G1 F1125 X133.197 Y124.146 E35.30643
G1 F1500 E28.80643
G0 F9000 X134.031 Y122.718
G1 F1500 E35.30643
G1 F1125 X97.28 Y85.967 E39.4552
G1 F1500 E32.9552
G0 F9000 X98.81 Y85.233
G1 F1500 E39.4552
G1 F1125 X134.765 Y121.189 E43.51416
G1 F1500 E37.01416
G0 F9000 X135.426 Y119.587
G1 F1500 E43.51416
G1 F1125 X100.411 Y84.571 E47.46702
G1 F1500 E40.96702
G0 F9000 X102.087 Y83.985
G1 F1500 E47.46702
G1 F1125 X136.014 Y117.912 E51.29699
G1 F1500 E44.79699
G0 F9000 X136.479 Y116.114
G1 F1500 E51.29699
G1 F1125 X103.885 Y83.52 E54.97648
G1 F1500 E48.47648
G0 F9000 X105.782 Y83.155
G1 F1500 E54.97648
G1 F1125 X136.843 Y114.215 E58.48286
G1 F1500 E51.98286
G0 F9000 X137.095 Y112.204
G1 F1500 E58.48286
G1 F1125 X107.792 Y82.902 E61.79078
G1 F1500 E55.29078
G0 F9000 X109.959 Y82.806
G1 F1500 E61.79078
G1 F1125 X137.191 Y110.038 E64.86496
G1 F1500 E58.36496
G0 F9000 X137.09 Y107.674
G1 F1500 E64.86496
G1 F1125 X112.322 Y82.907 E67.66093
G1 F1500 E61.16093
G0 F9000 X114.942 Y83.264
G1 F1500 E67.66093
G1 F1125 X136.737 Y105.058 E70.12128
G1 F1500 E63.62128
G0 F9000 X136.011 Y102.07
G1 F1500 E70.12128
G1 F1125 X117.928 Y83.987 E72.16265
G1 F1500 E65.66265
G0 F9000 X121.662 Y85.458
G1 F1500 E72.16265
G1 F1125 X134.543 Y98.339 E73.61677
G1 F1500 E67.11677
G0 F9000 X135.866 Y97.712
G0 X136.601 Y99.342
G0 X137.344 Y101.418
G0 X137.62 Y102.237
G0 X138.168 Y104.724
G0 X138.547 Y107.484
G0 X138.654 Y110.34
G0 X138.487 Y113.119
G0 X138.041 Y115.906
G0 X137.62 Y117.763
G0 X137.131 Y119.242
G0 X136.34 Y121.286
G0 X135.117 Y123.796
G0 X133.645 Y126.192
G0 X131.911 Y128.466
G0 X130.374 Y130.121
G0 X129.033 Y131.397
G0 X128.045 Y130.308
G1 F1500 E73.61677
G1 F1125 X89.688 Y91.951 E77.94684
G1 F1500 E71.44684
G0 F9000 X88.647 Y93.173
G1 F1500 E77.94684
G1 F1125 X126.824 Y131.349 E82.25653
G1 F1500 E75.75653
G0 F9000 X125.525 Y132.313
G1 F1500 E82.25653
G1 F1125 X87.684 Y94.472 E86.52835
G1 F1500 E80.02835
G0 F9000 X86.799 Y95.85
G1 F1500 E86.52835
G1 F1125 X124.145 Y133.196 E90.74429
G1 F1500 E84.24429
G0 F9000 X122.716 Y134.03
G1 F1500 E90.74429
G1 F1125 X85.967 Y97.28 E94.89289
G1 F1500 E88.39289
G0 F9000 X85.235 Y98.811
G1 F1500 E94.89289
G1 F1125 X121.188 Y134.765 E98.95163
G1 F1500 E92.45163
G0 F9000 X119.586 Y135.425
G1 F1500 E98.95163
G1 F1125 X84.57 Y100.409 E102.90454
G1 F1500 E96.40454
G0 F9000 X83.982 Y102.084
G1 F1500 E102.90454
G1 F1125 X117.911 Y136.013 E106.73474
G1 F1500 E100.23474
G0 F9000 X116.111 Y136.476
G1 F1500 E106.73474
G1 F1125 X83.519 Y103.883 E110.41406
G1 F1500 E103.91406
G0 F9000 X83.153 Y105.78
G1 F1500 E110.41406
G1 F1125 X114.215 Y136.842 E113.92061
G1 F1500 E107.42061
G0 F9000 X112.204 Y137.095
G1 F1500 E113.92061
G1 F1125 X82.901 Y107.791 E117.22864
G1 F1500 E110.72864
G0 F9000 X82.805 Y109.958
G1 F1500 E117.22864
G1 F1125 X110.036 Y137.189 E120.30271
G1 F1500 E113.80271
G0 F9000 X107.673 Y137.089
G1 F1500 E120.30271
G1 F1125 X82.905 Y112.321 E123.09874
G1 F1500 E116.59874
G0 F9000 X83.263 Y114.941
G1 F1500 E123.09874
G1 F1125 X105.056 Y136.735 E125.55898
G1 F1500 E119.05898
G0 F9000 X102.072 Y136.013
G1 F1500 E125.55898
G1 F1125 X83.987 Y117.928 E127.60057
G1 F1500 E121.10057
G0 F9000 X85.457 Y121.661
G1 F1500 E127.60057
G1 F1125 X98.331 Y134.535 E129.0539
M104 S218
G1 F1500 E122.5539
G0 F300 X98.331 Y134.535 Z0.54
G0 F9000 X100.658 Y135.516
;TIME_ELAPSED:114.828254
;LAYER:-5
;TYPE:SUPPORT
G1 F1500 E129.0539
G1 F1125 X100.789 Y135.385 E129.07238
G1 F1500 E122.57238
G0 F9000 X100.773 Y137.1
G0 X102.237 Y137.62
G0 X104.724 Y138.168
G0 X107.484 Y138.547
G0 X110.34 Y138.654
G0 X113.12 Y138.487
G0 X115.384 Y138.124
G0 X117.206 Y137.715
G0 X116.85 Y136.294
G1 F1500 E129.07238
G1 F1125 X117.084 Y136.06 E129.1054
G1 F1500 E122.6054
G0 F9000 X117.762 Y137.561
G0 X119.241 Y137.131
G0 X121.286 Y136.34
G0 X123.334 Y135.341
G0 X125.652 Y134.005
G0 X124.899 Y132.749
G1 F1500 E129.1054
G1 F1125 X125.333 Y132.459 E129.15748
G1 X127.02 Y131.207 E129.3671
G1 X127.485 Y130.825 E129.42715
G1 X129.035 Y129.42 E129.63589
G1 X129.374 Y129.083 E129.68359
G1 X130.837 Y127.471 E129.9008
G1 X131.194 Y127.036 E129.95695
G1 X132.467 Y125.322 E130.16999
G1 X132.726 Y124.937 E130.21628
G1 X133.138 Y124.249 E130.2963
G1 X124.247 Y133.14 E131.55092
G1 X123.05 Y133.856 E131.69009
G1 X122.581 Y134.107 E131.74317
G1 X121.224 Y134.748 E131.89292
G1 X134.741 Y121.231 E133.80031
G1 X135.08 Y120.514 E133.87945
G1 X135.233 Y120.131 E133.9206
G1 X135.562 Y119.211 E134.01809
G1 X135.347 Y119.211 E134.03954
G1 X119.211 Y135.347 E136.31651
G1 X119.211 Y135.32 E136.3192
G1 X118.124 Y135.942 E136.44416
G1 X117.124 Y136.02 E136.54425
G1 X136.293 Y116.851 E139.2492
G1 X136.616 Y115.57 E139.38102
G1 X136.734 Y114.996 E139.43949
G1 X115.004 Y136.726 E142.50583
G1 X113.344 Y136.972 E142.67327
G1 X136.97 Y113.346 E146.00716
G1 X137.047 Y112.83 E146.05921
G1 X137.081 Y112.481 E146.0942
G1 X137.115 Y111.787 E146.16353
G1 X111.785 Y137.116 E149.7378
G1 X110.297 Y137.19 E149.88646
G1 X137.189 Y110.298 E153.68121
G1 X137.194 Y109.843 E153.72661
G1 X137.15 Y108.923 E153.81851
G1 X108.924 Y137.149 E157.80151
G1 X107.575 Y137.084 E157.93627
G1 X137.084 Y107.575 E162.10031
G1 X137.046 Y107.155 E162.14238
G1 X136.922 Y106.323 E162.22632
G1 X106.322 Y136.923 E166.54431
G1 X105.09 Y136.741 E166.66857
G1 X136.747 Y105.083 E171.13579
G1 X136.617 Y104.432 E171.20203
G1 X136.49 Y103.926 E171.25408
G1 X103.928 Y136.489 E175.849
G1 X102.838 Y136.216 E175.96112
G1 X102.89 Y136.112 E175.97273
G1 X136.117 Y102.885 E180.66141
G1 X136.024 Y102.931 E180.67177
G1 X135.942 Y101.875 E180.77745
G1 X135.859 Y101.729 E180.79421
G1 X101.729 Y135.859 E185.61032
G1 X100.829 Y135.344 E185.71379
G1 X135.516 Y100.658 E190.60843
G1 X135.23 Y99.86 E190.69301
G1 X135.133 Y99.626 E190.71829
G1 X99.626 Y135.133 E195.72871
G1 X99.32 Y135.006 E195.76176
G1 X98.653 Y134.692 E195.83532
G1 X134.691 Y98.654 E200.92068
G1 X134.236 Y97.695 E201.02659
G1 X97.694 Y134.237 E206.18306
G1 X97.425 Y134.11 E206.21274
G1 X96.762 Y133.755 E206.28778
G1 X133.748 Y96.769 E211.50691
G1 X133.218 Y95.884 E211.60984
G1 X95.884 Y133.219 E216.87814
G1 X95.003 Y132.685 E216.98093
G1 X132.685 Y95.003 E222.29827
G1 X132.462 Y94.671 E222.33818
G1 X132.095 Y94.179 E222.39942
G1 X94.177 Y132.097 E227.75006
G1 X93.366 Y131.494 E227.8509
G1 X131.493 Y93.367 E233.23103
G1 X131.208 Y92.982 E233.27883
G1 X130.872 Y92.574 E233.33156
G1 X92.573 Y130.873 E238.73597
G1 X91.828 Y130.203 E238.83594
G1 X130.202 Y91.829 E244.25093
G1 X129.53 Y91.087 E244.35082
G1 X91.087 Y129.531 E249.77561
G1 X90.626 Y129.083 E249.83975
G1 X90.386 Y128.817 E249.8755
G1 X128.818 Y90.385 E255.29867
G1 X128.077 Y89.712 E255.39855
G1 X89.713 Y128.076 E260.81213
G1 X89.04 Y127.335 E260.91201
G1 X127.329 Y89.046 E266.315
G1 X127.025 Y88.797 E266.35421
G1 X126.53 Y88.43 E266.41569
G1 X88.432 Y126.528 E271.79173
G1 X87.828 Y125.718 E271.89255
G1 X125.719 Y87.827 E277.23938
G1 X125.329 Y87.538 E277.28781
G1 X124.887 Y87.245 E277.34073
G1 X87.246 Y124.886 E282.65228
G1 X86.715 Y124.002 E282.75517
G1 X124.003 Y86.715 E288.01684
G1 X123.119 Y86.184 E288.11974
G1 X86.185 Y123.119 E293.3316
G1 X85.893 Y122.58 E293.39276
G1 X85.706 Y122.184 E293.43646
G1 X122.185 Y85.705 E298.58404
G1 X121.224 Y85.251 E298.69009
G1 X85.252 Y121.224 E303.7662
G1 X84.988 Y120.667 E303.8277
G1 X84.813 Y120.248 E303.87301
G1 X120.247 Y84.814 E308.87313
G1 X119.211 Y84.438 E308.9831
G1 X119.211 Y84.679 E309.00715
G1 X119.057 Y84.59 E309.0249
G1 X84.59 Y119.056 E313.88849
G1 X84.076 Y118.156 E313.99191
G1 X118.171 Y84.062 E318.80301
G1 X117.066 Y83.976 E318.9136
G1 X117.162 Y83.784 E318.93502
G1 X117.061 Y83.758 E318.94543
G1 X83.758 Y117.06 E323.64477
G1 X83.475 Y115.929 E323.7611
G1 X115.93 Y83.474 E328.34085
G1 X115.562 Y83.382 E328.3787
G1 X115.05 Y83.28 E328.43079
G1 X114.754 Y83.236 E328.46065
G1 X83.236 Y114.754 E332.90818
G1 X83.055 Y113.521 E333.03253
G1 X113.522 Y83.054 E337.33175
G1 X112.834 Y82.953 E337.40114
G1 X112.264 Y82.898 E337.45828
G1 X82.908 Y112.253 E341.60065
G1 X82.843 Y110.905 E341.73532
G1 X110.904 Y82.843 E345.6951
G1 X110.139 Y82.806 E345.77152
G1 X109.513 Y82.82 E345.834
G1 X82.821 Y109.512 E349.60052
G1 X82.894 Y108.025 E349.74908
G1 X108.026 Y82.893 E353.29547
G1 X107.581 Y82.915 E353.33993
G1 X107.169 Y82.954 E353.38122
G1 X106.444 Y83.06 E353.45433
G1 X83.06 Y106.444 E356.75407
G1 X83.304 Y104.787 E356.92119
G1 X104.776 Y83.315 E359.95112
G1 X104.435 Y83.382 E359.98579
G1 X102.91 Y83.766 E360.14271
G1 X83.996 Y102.68 E362.81168
G1 X84.057 Y101.875 E362.89223
G1 X84.68 Y100.789 E363.01716
G1 X84.472 Y100.79 E363.03791
G1 X100.789 Y84.473 E365.34042
G1 X100.789 Y84.438 E365.34391
G1 X99.716 Y84.825 E365.45773
G1 X99.333 Y84.989 E365.4993
G1 X98.435 Y85.413 E365.59839
G1 X85.42 Y98.428 E367.43494
G1 X85.938 Y97.33 E367.55608
G1 X86.139 Y96.958 E367.59827
G1 X87.277 Y95.057 E367.81934
G1 X87.533 Y94.678 E367.86498
G1 X88.809 Y92.96 E368.07851
G1 X89.169 Y92.522 E368.13508
G1 X90.626 Y90.917 E368.35138
G1 X90.971 Y90.575 E368.39985
G1 X92.515 Y89.175 E368.60781
G1 X92.982 Y88.792 E368.66808
G1 X94.67 Y87.539 E368.87784
G1 X95.101 Y87.251 E368.92956
G1 X95.306 Y87.128 E368.95341
G1 X87.13 Y95.304 E370.10714
G1 F1500 E363.60714
G0 F300 X87.13 Y95.304 Z0.74
G0 F9000 X85.872 Y94.552
G0 X84.581 Y96.768
G0 X83.399 Y99.342
G0 X82.652 Y101.43
G0 X82.38 Y102.237
G0 X81.83 Y104.735
G0 X81.454 Y107.471
G0 X81.346 Y110.34
G0 X81.513 Y113.119
G0 X81.959 Y115.906
G0 X82.38 Y117.763
G0 X82.869 Y119.242
G0 X83.66 Y121.286
G0 X84.883 Y123.795
G0 X86.075 Y125.736
G0 X87.624 Y127.902
G0 X88.717 Y127.247
;TIME_ELAPSED:248.664675
;LAYER:-4
;TYPE:SUPPORT-INTERFACE
G1 F1500 E370.10714
G1 X89.014 Y127.604 E370.12258
G1 X90.485 Y129.224 E370.19536
G1 X90.824 Y129.562 E370.21128
G1 X92.381 Y130.974 E370.28119
G1 X92.84 Y131.351 E370.30095
G1 X93.01 Y131.477 E370.30799
G1 X88.53 Y126.997 E370.51871
G1 X87.372 Y125.442 E370.5832
G1 X87.05 Y124.951 E370.60273
G1 X95.05 Y132.951 E370.97902
G1 X96.461 Y133.797 E371.03374
G1 X86.202 Y123.537 E371.51632
G1 X85.967 Y123.145 E371.53152
G1 X85.708 Y122.658 E371.54986
G1 X85.545 Y122.315 E371.5625
G1 X97.685 Y134.455 E372.13352
G1 X98.759 Y134.963 E372.17304
G1 X85.037 Y121.241 E372.81848
G1 X84.807 Y120.753 E372.83642
G1 X84.593 Y120.231 E372.85519
G1 X99.771 Y135.409 E373.56911
G1 X100.654 Y135.726 E373.60032
G1 X84.274 Y119.347 E374.37076
G1 X84.153 Y119.011 E374.38264
G1 X84.335 Y119.011 E374.38869
G1 X84.108 Y118.614 E374.4039
G1 X101.385 Y135.892 E375.21658
G1 X101.818 Y136.139 E375.23316
G1 X102.229 Y136.17 E375.24687
G1 X83.829 Y117.77 E376.11235
G1 X83.799 Y117.378 E376.12543
